<?xml version="1.0" encoding="UTF-8"?>
<map version="1.9" tiledversion="1.9.2" orientation="orthogonal" renderorder="right-down" width="50" height="50" tilewidth="32" tileheight="32" infinite="0" nextlayerid="10" nextobjectid="7">
 <tileset firstgid="1" source="Backgrounds/Outside_A5.tsx"/>
 <tileset firstgid="129" source="Backgrounds/Dungeon_B.tsx"/>
 <tileset firstgid="385" source="Backgrounds/outsideB.tsx"/>
 <tileset firstgid="641" source="Backgrounds/World_B.tsx"/>
 <layer id="1" name="fond" width="50" height="50">
  <data encoding="csv">
21,21,21,21,21,21,21,21,21,21,21,21,21,21,21,21,21,21,21,21,21,21,21,21,21,21,21,21,21,21,21,21,21,21,21,21,21,21,21,21,21,21,21,21,21,21,21,21,21,21,
21,21,21,21,21,21,21,21,21,21,21,21,21,21,21,21,21,21,21,21,21,21,21,21,21,21,21,21,21,21,21,21,21,21,21,21,21,21,21,21,21,21,21,21,21,21,21,21,21,21,
21,21,21,21,21,21,21,21,21,21,21,21,21,21,21,21,21,21,21,21,21,21,21,21,21,21,21,21,21,21,21,21,21,21,21,21,21,21,21,21,21,21,21,21,21,21,21,21,21,21,
21,21,21,21,21,21,21,21,21,21,21,21,21,21,21,21,21,21,21,21,21,21,21,21,21,21,21,21,21,21,21,21,21,21,21,21,21,21,21,21,21,21,21,21,21,21,21,21,21,21,
21,21,21,21,21,21,21,21,21,21,21,21,21,21,21,21,21,21,21,21,21,21,21,21,21,21,21,21,21,21,21,21,21,21,21,21,21,21,21,21,21,21,21,21,21,21,21,21,21,21,
21,21,21,21,21,21,21,21,21,21,21,21,21,21,21,21,21,21,21,21,21,21,21,21,21,21,21,21,21,21,21,21,21,21,21,21,21,21,21,21,21,21,21,21,21,21,21,21,21,21,
21,21,21,21,21,21,21,21,21,21,21,21,21,21,21,21,21,21,21,21,21,21,21,21,21,21,21,21,21,21,21,21,21,21,21,21,21,21,21,21,21,21,21,21,21,21,21,21,21,21,
21,21,21,21,21,21,21,21,21,21,21,21,21,21,21,21,21,21,21,21,21,21,21,21,21,21,21,21,21,21,21,21,21,21,21,21,21,21,21,21,21,21,21,21,21,21,21,21,21,21,
21,21,21,21,21,21,21,21,21,21,21,21,21,21,21,21,21,21,21,21,21,21,21,21,21,21,21,21,21,21,21,21,21,21,21,21,21,21,21,21,21,21,21,21,21,21,21,21,21,21,
21,21,21,21,21,21,21,21,21,21,21,21,21,21,21,21,21,21,21,21,21,21,21,21,21,21,21,21,21,21,21,21,21,21,21,21,21,21,21,21,21,21,21,21,21,21,21,21,21,21,
21,21,21,21,21,21,21,21,21,21,21,21,21,21,21,21,21,21,21,21,21,21,21,21,21,21,21,21,21,21,21,21,21,21,21,21,21,21,21,21,21,21,21,21,21,21,21,21,21,21,
21,21,21,21,21,21,21,21,21,21,21,21,21,21,21,21,21,21,21,21,21,21,21,21,21,21,21,21,21,21,21,21,21,21,21,21,21,21,21,21,21,21,21,21,21,21,21,21,21,21,
21,21,21,21,21,21,21,21,21,21,21,21,21,21,21,21,21,21,21,21,21,21,21,21,21,21,21,21,21,21,21,21,21,21,21,21,21,21,21,21,21,21,21,21,21,21,21,21,21,21,
21,21,21,21,21,21,21,21,21,21,21,21,21,21,21,21,21,21,21,21,21,21,21,21,21,21,21,21,21,21,21,21,21,21,21,21,21,21,21,21,21,21,21,21,21,21,21,21,21,21,
21,21,21,21,21,21,21,21,21,21,21,21,21,21,21,21,21,21,21,21,21,21,21,21,21,21,21,21,21,21,21,21,21,21,21,21,21,21,21,21,21,21,21,21,21,21,21,21,21,21,
21,21,21,21,21,21,21,21,21,21,21,21,21,21,21,21,21,21,21,21,21,21,21,21,21,21,21,21,21,21,21,21,21,21,21,21,21,21,21,21,21,21,21,21,21,21,21,21,21,21,
21,21,21,21,21,21,21,21,21,21,21,21,21,21,21,21,21,21,21,21,21,21,21,21,21,21,21,21,21,21,21,21,21,21,21,21,21,21,21,21,21,21,21,21,21,21,21,21,21,21,
21,21,21,21,21,21,21,21,21,21,21,21,21,21,21,21,21,21,21,21,21,21,21,21,21,21,21,21,21,21,21,21,21,21,21,21,21,21,21,21,21,21,21,21,21,21,21,21,21,21,
21,21,21,21,21,21,21,21,21,21,21,21,21,21,21,21,21,21,21,21,21,21,21,21,21,21,21,21,21,21,21,21,21,21,21,21,21,21,21,21,21,21,21,21,21,21,21,21,21,21,
21,21,21,21,21,21,21,21,21,21,21,21,21,21,21,21,21,21,21,21,21,21,21,21,21,21,21,21,21,21,21,21,21,21,21,21,21,21,21,21,21,21,21,21,21,21,21,21,21,21,
21,21,21,21,21,21,21,21,21,21,21,21,21,21,21,21,21,21,21,21,21,21,21,21,21,21,21,21,21,21,21,21,21,21,21,21,21,21,21,21,21,21,21,21,21,21,21,21,21,21,
21,21,21,21,21,21,21,21,21,21,21,21,21,21,21,21,21,21,21,21,21,21,21,21,21,21,21,21,21,21,21,21,21,21,21,21,21,21,21,21,21,21,21,21,21,21,21,21,21,21,
21,21,21,21,21,21,21,21,21,21,21,21,21,21,21,21,21,21,21,21,21,21,21,21,21,21,21,21,21,21,21,21,21,21,21,21,21,21,21,21,21,21,21,21,21,21,21,21,21,21,
21,21,21,21,21,21,21,21,21,21,21,21,21,21,21,21,21,21,21,21,21,21,21,21,21,21,21,21,21,21,21,21,21,21,21,21,21,21,21,21,21,21,21,21,21,21,21,21,21,21,
21,21,21,21,21,21,21,21,21,21,21,21,21,21,21,21,21,21,21,21,21,21,21,21,21,21,21,21,21,21,21,21,21,21,21,21,21,21,21,21,21,21,21,21,21,21,21,21,21,21,
21,21,21,21,21,21,21,21,21,21,21,21,21,21,21,21,21,21,21,21,21,21,21,21,21,21,21,21,21,21,21,21,21,21,21,21,21,21,21,21,21,21,21,21,21,21,21,21,21,21,
21,21,21,21,21,21,21,21,21,21,21,21,21,21,21,21,21,21,21,21,21,21,21,21,21,21,21,21,21,21,21,21,21,21,21,21,21,21,21,21,21,21,21,21,21,21,21,21,21,21,
21,21,21,21,21,21,21,21,21,21,21,21,21,21,21,21,21,21,21,21,21,21,21,21,21,21,21,21,21,21,21,21,21,21,21,21,21,21,21,21,21,21,21,21,21,21,21,21,21,21,
21,21,21,21,21,21,21,21,21,21,21,21,21,21,21,21,21,21,21,21,21,21,21,21,21,21,21,21,21,21,21,21,21,21,21,21,21,21,21,21,21,21,21,21,21,21,21,21,21,21,
21,21,21,21,21,21,21,21,21,21,21,21,21,21,21,21,21,21,21,21,21,21,21,21,21,21,21,21,21,21,21,21,21,21,21,21,21,21,21,21,21,21,21,21,21,21,21,21,21,21,
21,21,21,21,21,21,21,21,21,21,21,21,21,21,21,21,21,21,21,21,21,21,21,21,21,21,21,21,21,21,21,21,21,21,21,21,21,21,21,21,21,21,21,21,21,21,21,21,21,21,
21,21,21,21,21,21,21,21,21,21,21,21,21,21,21,21,21,21,21,21,21,21,21,21,21,21,21,21,21,21,21,21,21,21,21,21,21,21,21,21,21,21,21,21,21,21,21,21,21,21,
21,21,21,21,21,21,21,21,21,21,21,21,21,21,21,21,21,21,21,21,21,21,21,21,21,21,21,21,21,21,21,21,21,21,21,21,21,21,21,21,21,21,21,21,21,21,21,21,21,21,
21,21,21,21,21,21,21,21,21,21,21,21,21,21,21,21,21,21,21,21,21,21,21,21,21,21,21,21,21,21,21,21,21,21,21,21,21,21,21,21,21,21,21,21,21,21,21,21,21,21,
21,21,21,21,21,21,21,21,21,21,21,21,21,21,21,21,21,21,21,21,21,21,21,21,21,21,21,21,21,21,21,21,21,21,21,21,21,21,21,21,21,21,21,21,21,21,21,21,21,21,
21,21,21,21,21,21,21,21,21,21,21,21,21,21,21,21,21,21,21,21,21,21,21,21,21,21,21,21,21,21,21,21,21,21,21,21,21,21,21,21,21,21,21,21,21,21,21,21,21,21,
21,21,21,21,21,21,21,21,21,21,21,21,21,21,21,21,21,21,21,21,21,21,21,21,21,21,21,21,21,21,21,21,21,21,21,21,21,21,21,21,21,21,21,21,21,21,21,21,21,21,
21,21,21,21,21,21,21,21,21,21,21,21,21,21,21,21,21,21,21,21,21,21,21,21,21,21,21,21,21,21,21,21,21,21,21,21,21,21,21,21,21,21,21,21,21,21,21,21,21,21,
21,21,21,21,21,21,21,21,21,21,21,21,21,21,21,21,21,21,21,21,21,21,21,21,21,21,21,21,21,21,21,21,21,21,21,21,21,21,21,21,21,21,21,21,21,21,21,21,21,21,
21,21,21,21,21,21,21,21,21,21,21,21,21,21,21,21,21,21,21,21,21,21,21,21,21,21,21,21,21,21,21,21,21,21,21,21,21,21,21,21,21,21,21,21,21,21,21,21,21,21,
21,21,21,21,21,21,21,21,21,21,21,21,21,21,21,21,21,21,21,21,21,21,21,21,21,21,21,21,21,21,21,21,21,21,21,21,21,21,21,21,21,21,21,21,21,21,21,21,21,21,
21,21,21,21,21,21,21,21,21,21,21,21,21,21,21,21,21,21,21,21,21,21,21,21,21,21,21,21,21,21,21,21,21,21,21,21,21,21,21,21,21,21,21,21,21,21,21,21,21,21,
21,21,21,21,21,21,21,21,21,21,21,21,21,21,21,21,21,21,21,21,21,21,21,21,21,21,21,21,21,21,21,21,21,21,21,21,21,21,21,21,21,21,21,21,21,21,21,21,21,21,
21,21,21,21,21,21,21,21,21,21,21,21,21,21,21,21,21,21,21,21,21,21,21,21,21,21,21,21,21,21,21,21,21,21,21,21,21,21,21,21,21,21,21,21,21,21,21,21,21,21,
21,21,21,21,21,21,21,21,21,21,21,21,21,21,21,21,21,21,21,21,21,21,21,21,21,21,21,21,21,21,21,21,21,21,21,21,21,21,21,21,21,21,21,21,21,21,21,21,21,21,
21,21,21,21,21,21,21,21,21,21,21,21,21,21,21,21,21,21,21,21,21,21,21,21,21,21,21,21,21,21,21,21,21,21,21,21,21,21,21,21,21,21,21,21,21,21,21,21,21,21,
21,21,21,21,21,21,21,21,21,21,21,21,21,21,21,21,21,21,21,21,21,21,21,21,21,21,21,21,21,21,21,21,21,21,21,21,21,21,21,21,21,21,21,21,21,21,21,21,21,21,
21,21,21,21,21,21,21,21,21,21,21,21,21,21,21,21,21,21,21,21,21,21,21,21,21,21,21,21,21,21,21,21,21,21,21,21,21,21,21,21,21,21,21,21,21,21,21,21,21,21,
21,21,21,21,21,21,21,21,21,21,21,21,21,21,21,21,21,21,21,21,21,21,21,21,21,21,21,21,21,21,21,21,21,21,21,21,21,21,21,21,21,21,21,21,21,21,21,21,21,21,
21,21,21,21,21,21,21,21,21,21,21,21,21,21,21,21,21,21,21,21,21,21,21,21,21,21,21,21,21,21,21,21,21,21,21,21,21,21,21,21,21,21,21,21,21,21,21,21,21,21
</data>
 </layer>
 <layer id="5" name="chemin" width="50" height="50">
  <data encoding="csv">
0,0,0,0,0,0,0,0,0,0,0,0,0,0,0,0,0,0,0,0,0,0,0,0,0,0,0,0,0,0,0,0,0,0,0,0,102,104,0,0,0,0,0,0,0,0,0,0,0,0,
0,0,94,95,95,96,0,0,0,0,0,0,0,0,0,0,0,0,0,0,0,0,0,0,0,0,0,0,0,0,0,0,0,0,0,0,102,104,0,0,0,0,0,0,94,95,95,96,0,0,
0,0,102,103,103,104,561,94,95,95,95,95,95,96,561,0,0,0,0,564,94,95,95,95,95,95,95,95,95,95,95,95,95,95,95,95,103,103,0,0,94,95,95,95,103,103,103,104,0,0,
0,0,110,103,103,112,0,102,103,111,111,111,103,104,0,0,563,0,0,0,102,103,111,111,103,103,111,111,111,111,111,111,111,111,111,111,111,111,0,563,102,103,111,111,103,103,103,104,0,0,
0,0,0,102,104,0,0,102,104,0,0,0,102,104,0,0,0,0,0,0,102,104,0,564,102,104,0,0,0,0,0,0,563,0,0,0,0,0,0,0,102,104,0,0,110,103,103,112,0,0,
0,564,0,102,104,0,563,102,104,0,0,0,102,103,95,95,95,95,95,95,103,104,0,0,102,104,0,0,0,0,0,0,0,0,0,564,0,0,0,0,102,104,0,563,0,102,104,0,0,0,
0,0,94,103,103,95,95,103,104,0,0,0,102,103,111,111,111,111,111,111,111,112,0,0,102,103,95,95,95,95,95,95,95,95,95,95,96,0,0,0,102,104,0,0,0,102,104,0,0,0,
0,94,103,103,103,111,111,103,104,0,0,0,102,104,0,0,0,0,0,0,0,0,563,0,102,103,111,111,111,103,103,111,111,111,111,111,103,95,95,95,103,103,95,95,95,103,103,96,0,0,
0,102,103,112,0,0,0,102,104,0,0,0,102,104,0,563,0,0,0,0,0,0,0,561,102,104,0,0,0,102,104,0,0,0,0,0,110,111,111,111,111,111,111,103,103,111,111,112,0,0,
0,102,104,0,0,0,0,102,104,0,0,0,102,104,0,0,0,563,0,94,95,95,95,95,103,104,0,561,0,102,104,0,0,563,0,0,0,0,0,0,0,0,0,102,104,0,0,0,0,0,
0,102,104,563,0,94,95,103,103,95,95,95,103,103,95,95,95,95,95,103,111,111,111,111,111,112,0,0,0,102,104,0,0,94,95,95,95,95,95,95,95,95,95,103,103,96,0,0,0,0,
0,102,104,0,94,103,111,111,111,111,111,111,103,103,111,111,111,111,111,112,0,0,0,0,0,0,0,0,0,102,104,0,0,110,111,111,111,111,111,111,111,111,111,111,103,104,563,0,0,0,
0,102,104,0,102,104,0,0,0,0,563,0,102,104,0,561,0,564,0,0,0,0,563,0,0,0,0,0,0,102,104,0,0,0,563,0,0,0,0,0,0,0,0,0,102,104,0,0,0,0,
0,102,104,0,102,104,0,94,95,95,95,95,103,103,95,95,95,95,95,95,95,95,95,95,95,95,95,95,95,103,103,95,95,95,95,95,95,95,95,96,0,0,0,0,102,104,0,0,0,0,
0,102,104,0,102,104,0,102,103,103,111,111,111,111,111,111,111,111,111,111,111,111,111,111,111,111,111,111,111,111,111,111,111,111,111,111,111,103,103,104,0,0,0,0,102,104,0,0,0,0,
0,102,104,0,102,104,0,102,103,104,0,0,0,0,0,0,0,0,0,0,0,0,0,0,0,0,0,0,0,0,0,0,0,0,0,0,0,102,103,104,0,94,95,95,103,104,0,561,0,0,
0,102,103,95,103,104,0,102,103,104,0,0,0,0,0,0,0,0,0,0,0,0,0,0,0,0,0,0,0,0,0,0,0,0,0,0,0,102,103,104,0,102,103,111,111,112,0,0,0,0,
0,102,103,111,111,112,0,102,103,103,95,95,95,96,0,0,0,0,0,0,0,53,53,53,53,53,53,53,53,53,53,0,0,0,563,0,0,102,103,104,0,102,104,0,0,0,0,0,0,0,
0,102,104,0,0,0,0,102,103,103,111,111,103,104,0,0,563,0,0,0,53,1,1,1,1,1,1,1,1,1,1,53,0,0,0,561,0,102,103,104,0,102,104,0,94,96,0,0,0,0,
0,102,104,0,0,0,0,102,103,104,0,0,110,112,0,0,0,0,0,53,1,1,1,1,1,1,1,1,1,1,1,1,53,0,0,0,0,102,103,104,0,102,104,0,102,104,0,0,0,0,
0,102,104,0,0,0,0,102,103,104,0,0,0,0,0,0,0,0,0,53,1,1,1,1,1,1,1,1,1,1,1,1,53,0,0,0,0,102,103,104,0,102,104,0,102,104,563,0,0,0,
0,102,103,95,95,96,0,102,103,104,0,563,0,0,0,0,0,0,0,53,1,1,1,1,1,1,1,1,1,1,1,1,53,0,0,564,0,102,103,104,563,102,104,0,102,104,0,0,0,0,
0,110,111,111,103,104,0,102,103,104,0,0,0,0,524,0,0,0,0,53,1,1,1,1,1,1,1,1,1,1,1,1,53,0,0,0,0,102,103,104,0,102,103,95,103,104,0,0,0,0,
0,0,0,0,102,104,564,102,103,104,0,0,0,0,0,0,564,0,0,53,1,1,1,1,1,1,1,1,1,1,1,1,53,0,0,0,0,110,111,112,0,110,111,111,103,104,0,0,0,0,
0,0,0,0,102,104,0,102,103,104,0,0,0,0,0,0,0,0,0,53,1,1,1,1,1,1,1,1,1,1,1,1,53,0,0,0,0,0,0,0,0,0,0,0,102,104,0,0,0,0,
0,94,95,95,103,104,0,102,103,103,95,95,96,0,0,0,0,0,0,53,1,1,1,1,1,1,1,1,1,1,1,1,53,0,0,0,0,94,95,95,95,95,95,95,103,104,0,0,0,0,
0,102,103,111,103,104,0,102,103,103,111,103,104,0,0,563,0,0,0,53,1,1,1,1,1,1,1,1,1,1,1,1,53,0,0,0,0,110,111,111,111,111,111,111,103,104,0,0,0,0,
0,102,104,0,102,104,0,102,103,104,0,102,104,0,0,0,0,0,0,0,53,1,1,1,1,1,1,1,1,1,1,53,0,0,0,0,0,0,0,563,0,0,0,0,102,104,0,0,0,0,
0,102,104,0,102,104,563,102,103,104,0,102,103,95,96,0,0,524,0,0,0,53,53,53,53,1,1,53,53,53,53,0,0,0,563,0,0,94,95,96,0,0,0,0,102,104,0,563,0,0,
0,102,104,0,102,104,0,102,103,104,0,110,111,103,104,0,0,0,0,0,0,0,0,0,0,102,104,0,0,0,0,0,0,0,0,0,0,102,103,104,0,0,0,0,102,104,0,0,0,0,
0,102,104,0,102,104,0,102,103,104,563,0,0,102,104,0,0,0,0,0,0,0,0,0,0,102,104,0,0,0,0,0,0,0,0,0,0,102,103,104,0,0,0,0,102,104,0,0,0,0,
0,102,104,0,102,104,0,102,103,104,0,0,0,102,104,0,0,0,0,0,563,0,0,0,0,102,103,95,95,95,95,95,95,95,95,95,95,103,103,103,95,95,95,95,103,103,95,96,0,0,
0,102,103,95,103,104,0,102,103,104,0,0,0,102,103,95,96,0,0,0,0,0,0,0,0,102,103,103,103,103,103,103,103,103,103,103,103,103,103,103,103,103,103,103,103,103,103,104,0,0,
0,110,111,111,103,104,0,102,103,104,0,0,0,110,111,103,104,0,0,0,0,0,0,0,0,110,111,111,111,111,111,111,111,111,111,103,103,111,111,111,111,111,111,111,111,111,103,104,0,0,
0,0,0,0,102,104,0,102,103,104,0,0,563,0,0,102,104,0,0,0,0,0,0,0,0,0,561,0,0,0,563,0,0,0,0,102,104,0,0,0,0,0,0,0,0,561,102,104,0,0,
0,0,0,0,102,104,0,102,103,104,0,0,0,0,0,102,104,0,0,0,0,0,0,563,0,0,0,0,0,0,0,0,0,0,0,102,104,0,0,0,0,0,0,0,0,0,102,104,0,0,
0,94,96,0,102,104,0,102,103,103,95,95,95,95,95,103,103,95,95,95,95,95,95,95,95,95,95,95,95,96,0,0,0,0,0,102,104,563,0,0,0,0,0,0,0,0,102,104,0,0,
0,102,104,0,102,103,95,103,103,103,103,103,103,103,103,103,103,103,103,103,103,103,103,103,103,103,103,103,103,104,0,0,0,0,0,102,104,0,0,0,0,0,0,0,0,0,102,104,0,0,
0,102,103,95,103,103,111,111,111,111,111,111,111,111,111,111,111,111,111,111,111,111,111,111,111,111,111,103,103,104,0,0,0,0,0,102,104,0,0,0,94,95,96,0,0,563,102,104,0,0,
0,102,103,111,111,112,0,0,561,0,0,0,0,0,0,561,0,0,0,0,0,0,0,0,0,0,563,102,103,104,0,0,0,0,0,102,103,95,95,95,103,103,103,95,95,95,103,104,0,0,
0,102,104,0,0,0,563,0,0,0,0,0,0,0,0,0,0,0,0,94,95,95,96,0,0,0,0,102,103,104,0,0,0,0,0,110,111,111,111,111,103,103,103,111,111,111,103,104,0,0,
0,102,103,95,95,96,0,0,0,94,95,95,95,95,96,0,0,0,0,110,103,103,112,0,0,0,0,102,103,103,95,95,95,96,0,0,0,0,0,0,110,111,112,0,0,0,102,104,0,0,
0,102,103,111,111,112,0,0,0,102,103,111,111,103,104,0,0,0,0,0,102,104,0,0,0,0,0,102,103,103,111,111,111,104,0,0,0,563,0,0,0,0,0,0,0,563,102,104,0,0,
0,102,104,0,0,0,0,0,563,102,104,0,0,102,104,0,0,563,0,0,102,104,0,564,0,0,0,102,103,104,0,0,102,104,0,0,0,0,0,561,0,0,564,0,0,0,102,104,0,0,
0,102,104,0,0,0,94,96,0,102,104,0,0,102,103,95,95,95,95,95,103,103,95,95,95,95,95,103,103,104,0,0,102,104,0,0,94,95,95,95,95,95,95,96,0,0,102,104,0,0,
0,102,104,0,0,0,102,104,0,102,104,0,0,110,111,111,111,111,111,111,111,111,103,103,111,111,111,103,103,104,0,0,102,103,95,95,103,103,103,103,103,103,103,103,95,95,103,104,0,0,
0,102,103,95,95,95,103,103,95,103,104,0,0,0,0,563,0,0,0,0,0,0,102,104,0,0,0,102,103,104,0,0,110,111,111,111,103,103,103,103,103,103,103,103,111,111,111,112,0,0,
0,110,111,111,111,111,111,111,111,103,103,95,95,95,96,0,94,95,95,95,95,95,103,104,0,0,0,110,111,112,0,563,0,0,0,0,110,111,111,111,111,111,111,112,0,0,0,0,0,0,
0,0,0,0,0,0,0,0,0,110,111,111,111,111,112,0,110,111,111,111,111,111,111,112,0,0,0,0,0,0,0,0,0,0,0,0,0,0,0,0,0,0,0,0,0,0,0,0,0,0,
0,0,0,0,0,0,0,0,0,0,0,0,0,0,0,0,0,0,0,0,0,0,0,0,0,0,0,0,0,0,0,0,0,0,0,0,0,0,0,0,0,0,0,0,0,0,0,0,0,0
</data>
 </layer>
 <layer id="6" name="boss1" width="50" height="50">
  <data encoding="csv">
566,566,660,660,660,660,609,610,609,610,609,610,609,610,609,610,609,610,609,610,609,610,609,610,609,610,609,610,609,610,609,610,609,610,0,0,0,0,0,0,609,610,566,0,660,660,660,660,609,610,
582,582,0,0,0,0,625,626,625,626,625,626,625,626,625,626,625,626,625,626,625,626,625,626,625,626,625,626,625,626,625,626,625,626,0,0,0,0,0,0,625,626,582,0,0,0,0,0,625,626,
566,0,0,0,0,0,0,0,0,0,0,0,0,0,0,0,0,0,0,0,0,0,0,0,0,0,0,0,0,0,0,0,0,0,0,0,0,0,0,0,0,0,0,0,0,0,0,0,609,610,
582,0,0,0,0,0,0,0,0,0,0,0,0,0,0,0,0,581,0,0,0,0,0,0,0,0,0,0,0,0,0,0,0,0,0,0,0,0,0,0,0,0,0,0,0,0,0,0,625,626,
566,0,0,0,0,0,0,0,0,580,580,580,0,0,0,0,0,0,0,0,0,0,0,0,0,0,579,579,579,0,581,0,0,0,0,0,0,0,0,0,0,0,0,0,0,0,0,0,609,610,
582,0,0,0,0,0,0,0,0,580,578,580,0,0,0,0,0,0,0,0,0,0,0,0,0,0,579,579,579,0,0,0,0,0,0,0,0,0,0,0,0,0,0,0,0,0,0,0,625,626,
566,0,0,0,0,0,0,0,0,578,0,578,0,0,0,0,0,0,0,0,0,0,0,0,0,0,0,0,0,0,0,0,0,0,0,0,0,0,0,0,0,0,581,0,0,0,0,0,609,610,
582,0,0,0,0,0,0,0,0,579,579,579,0,0,581,0,597,597,597,597,0,0,0,0,0,0,0,0,0,0,0,0,0,0,0,0,0,0,0,0,0,0,0,0,0,0,0,0,625,626,
566,0,0,0,581,597,597,0,0,507,579,507,0,0,0,0,597,597,597,597,0,0,0,0,0,0,0,0,581,0,0,0,0,0,0,581,0,0,0,0,0,0,0,0,0,0,0,0,609,610,
582,0,0,0,0,597,597,0,0,507,507,507,0,0,0,0,0,0,0,0,0,0,0,0,0,0,0,0,0,0,0,0,0,0,0,0,0,0,0,0,0,578,578,0,0,0,581,0,625,626,
566,0,0,0,0,0,0,0,0,0,0,0,0,0,0,0,0,0,0,0,0,0,0,0,0,0,0,0,0,0,0,597,597,0,0,0,0,0,0,0,0,0,0,0,0,0,0,0,609,610,
582,0,0,0,0,0,0,0,0,0,0,0,0,0,0,0,0,0,0,0,0,0,0,0,0,0,507,507,507,0,0,597,597,0,0,0,0,0,0,0,0,0,0,0,0,0,0,0,625,626,
566,0,0,0,0,0,0,578,579,0,0,581,0,0,0,0,0,0,0,0,0,0,0,0,0,0,507,507,507,0,0,0,0,0,0,0,0,0,0,0,0,0,507,507,0,0,0,0,609,610,
582,0,0,578,0,0,578,0,0,0,0,0,0,0,0,0,0,0,0,0,0,0,0,0,0,0,0,0,0,0,0,0,0,0,0,0,0,0,0,0,0,0,507,507,0,0,0,0,625,626,
566,0,0,578,0,0,579,0,0,0,0,0,0,0,0,0,0,0,0,0,0,0,0,0,0,0,0,0,0,0,0,0,0,0,0,0,0,0,0,0,0,0,507,507,0,0,0,0,609,610,
582,0,0,578,0,0,0,0,0,0,0,0,0,0,0,0,0,0,0,0,0,566,566,566,566,566,566,566,566,566,566,0,0,0,0,0,0,0,0,0,0,0,0,0,0,0,0,0,625,626,
566,0,0,0,0,0,0,0,0,0,0,0,0,0,0,0,0,0,0,0,566,582,582,582,582,582,582,582,582,582,582,566,0,0,0,0,0,0,0,0,0,0,0,0,0,0,0,0,609,610,
582,0,0,0,0,0,0,0,0,0,0,0,0,0,0,0,0,0,0,566,582,0,0,0,0,0,0,0,0,0,0,582,566,0,0,0,0,0,0,0,0,0,0,0,0,0,0,0,625,626,
566,0,0,507,507,507,581,0,0,0,0,0,0,0,0,0,0,0,0,582,0,0,0,0,0,0,0,0,0,0,0,0,582,0,0,0,0,0,0,0,0,0,0,0,0,0,0,0,609,610,
582,0,0,507,507,507,0,0,0,0,0,0,0,0,0,0,0,0,0,294,0,0,0,0,0,0,0,0,0,0,0,0,294,0,0,0,0,0,0,0,0,0,0,0,0,0,0,0,625,626,
566,0,0,507,507,507,0,0,0,0,0,0,0,0,0,0,0,0,0,310,0,0,0,0,0,0,0,0,0,0,0,0,310,0,0,0,0,0,0,0,0,0,0,0,0,0,0,0,609,610,
582,0,0,0,0,0,0,0,0,0,0,0,0,0,0,0,0,0,0,294,0,0,0,0,0,0,0,0,0,0,0,0,294,0,0,0,0,0,0,0,0,0,0,0,0,0,0,0,625,626,
566,0,0,0,0,0,0,0,0,0,0,0,0,0,0,0,0,0,0,310,0,0,0,0,0,0,0,0,0,0,0,0,310,0,0,0,0,0,0,0,0,0,0,0,0,0,0,0,609,610,
582,598,598,599,0,0,0,0,0,0,0,0,0,0,0,0,0,0,0,294,0,0,0,0,0,0,0,0,0,0,0,0,294,0,0,0,0,0,0,0,0,0,0,0,0,0,0,0,625,626,
566,598,600,600,0,0,0,0,0,0,0,0,0,0,0,0,0,0,0,310,0,0,0,0,0,0,0,0,0,0,0,0,310,0,0,0,0,0,0,0,581,0,0,0,0,0,0,0,609,610,
582,0,0,0,0,0,0,0,0,0,0,0,0,0,581,0,0,0,0,294,0,0,0,0,0,0,0,0,0,0,0,0,294,0,0,0,0,0,0,0,0,0,0,0,0,0,0,578,625,626,
566,0,0,0,0,0,0,0,0,0,0,0,0,0,0,0,0,0,0,310,294,0,0,0,0,0,0,0,0,0,0,294,310,0,0,0,0,0,0,0,0,0,0,0,0,0,0,578,609,610,
582,0,0,507,0,0,0,0,0,0,0,0,0,0,0,0,0,0,0,0,310,294,294,294,294,0,0,294,294,294,294,310,0,0,0,0,0,0,0,0,580,580,580,580,0,0,0,0,625,626,
566,0,0,507,0,0,0,0,0,0,0,0,0,0,0,0,0,0,0,0,0,310,310,310,310,0,0,310,310,310,310,0,0,0,0,0,0,0,0,0,580,507,507,580,0,0,0,0,609,610,
582,0,0,507,0,0,0,0,0,0,0,0,0,0,0,0,0,0,0,0,0,0,0,0,0,0,0,0,0,0,0,0,0,0,0,0,0,0,0,0,580,507,507,580,0,0,0,0,625,626,
566,0,0,507,0,0,0,0,0,0,0,0,0,0,0,0,0,0,0,0,0,0,0,0,0,0,0,0,0,0,0,0,0,0,0,0,0,0,0,0,580,580,580,580,0,0,0,0,609,610,
582,0,0,507,0,0,0,0,0,0,0,0,0,0,0,0,0,0,0,0,0,0,0,0,0,0,0,0,0,0,0,0,0,0,0,0,0,0,0,0,0,0,0,0,0,0,0,0,625,626,
566,0,0,0,0,0,0,0,0,0,0,0,0,0,0,0,0,0,0,0,0,0,0,0,0,0,0,0,0,0,0,0,0,0,0,0,0,0,0,0,0,0,0,0,0,0,0,0,609,610,
582,0,0,0,0,0,0,0,0,0,0,0,0,0,0,0,0,0,597,597,597,597,0,0,0,0,0,0,0,0,0,0,0,0,0,0,0,0,0,0,0,0,0,0,0,0,0,0,625,626,
566,580,580,580,0,0,0,0,0,0,0,0,0,0,0,0,0,0,597,597,597,597,0,0,0,0,0,0,0,0,0,0,0,0,0,0,0,0,581,0,0,0,0,0,0,0,0,0,609,610,
582,580,580,580,0,0,578,0,0,0,0,0,0,0,0,0,0,0,0,0,0,0,0,0,0,0,0,0,0,0,578,579,579,579,578,0,0,0,0,578,597,597,597,597,579,0,0,0,625,626,
566,0,0,0,0,0,581,0,0,0,0,0,0,0,0,0,0,0,0,0,0,0,0,0,0,0,0,0,0,0,579,580,580,580,579,0,0,0,0,578,597,597,597,597,579,0,0,0,609,610,
582,0,0,581,0,0,0,0,0,0,0,0,0,0,0,0,0,0,0,0,0,0,0,0,0,0,0,0,0,0,579,580,0,580,579,0,0,0,0,0,0,0,0,0,0,0,0,0,625,626,
566,0,0,0,0,0,0,0,0,0,0,0,0,0,0,0,0,0,0,0,0,0,0,0,0,0,0,0,0,0,579,580,580,580,579,0,0,0,0,0,536,535,536,0,0,0,0,0,609,610,
582,0,0,0,0,0,0,0,0,0,0,597,597,597,0,0,0,581,0,0,0,0,0,0,0,0,0,0,0,0,578,579,579,579,578,0,0,0,0,0,0,0,0,0,0,0,0,0,625,626,
566,0,0,0,578,0,0,0,0,0,0,597,597,597,0,0,0,0,0,0,0,0,0,0,579,579,0,0,0,0,0,0,0,0,0,0,0,0,0,0,0,0,0,0,0,0,0,0,609,610,
582,0,0,0,0,0,0,0,0,0,0,0,0,0,0,0,0,0,0,0,0,0,0,597,578,578,0,0,0,0,0,0,0,0,0,0,0,0,0,0,0,0,0,0,0,0,0,0,625,626,
566,0,0,0,0,0,0,0,0,0,0,0,0,0,0,0,0,0,0,0,0,0,0,0,578,578,597,0,0,0,0,0,0,0,0,0,0,0,0,0,0,0,0,0,0,0,0,0,609,610,
582,0,0,507,507,507,0,0,0,0,0,580,580,0,0,0,0,0,0,0,0,0,0,0,0,0,0,0,0,0,507,507,0,0,0,0,0,0,0,0,0,0,0,0,0,0,0,0,625,626,
566,0,0,507,507,507,0,0,0,0,0,580,580,0,0,0,0,0,0,0,0,0,0,0,0,0,0,0,0,0,507,507,0,0,581,0,0,0,0,0,0,0,0,0,0,0,0,0,609,610,
582,0,0,507,507,507,0,0,0,0,0,0,0,0,0,0,0,0,0,0,0,0,0,0,0,0,0,0,0,0,507,507,0,0,0,0,0,0,0,0,0,0,0,0,0,0,0,0,625,626,
566,0,0,0,0,0,0,0,0,0,0,0,581,0,0,0,0,0,0,0,0,0,0,0,580,580,580,0,0,0,0,0,0,0,0,0,0,0,0,0,0,0,0,0,0,0,0,0,609,610,
582,0,0,0,0,0,0,0,0,0,0,0,0,0,0,0,0,0,0,0,0,0,0,0,580,580,580,0,0,0,0,0,0,0,0,0,0,0,0,0,0,0,0,0,0,0,0,0,625,626,
566,609,610,609,610,609,610,609,610,0,0,0,0,0,0,566,0,0,0,0,0,0,0,0,609,610,609,610,609,610,609,610,609,610,609,610,0,0,0,0,0,0,0,0,609,610,609,610,609,610,
582,625,626,625,626,625,626,625,626,660,660,660,660,660,660,582,660,660,660,660,660,660,660,660,625,626,625,626,625,626,625,626,625,626,625,626,660,660,660,660,660,660,660,660,625,626,625,626,625,626
</data>
 </layer>
 <layer id="7" name="boss2" width="50" height="50">
  <data encoding="csv">
0,0,0,0,0,0,0,0,0,0,0,0,0,0,0,0,0,0,0,0,0,0,0,0,0,0,0,0,0,0,0,0,0,0,0,0,0,0,0,0,0,0,0,0,0,0,0,0,0,0,
0,0,609,610,0,0,0,0,0,0,0,0,0,0,0,0,0,0,0,0,0,0,0,0,0,0,0,0,0,0,0,0,0,0,0,0,0,0,0,0,0,0,0,0,0,0,0,0,0,0,
0,0,625,626,0,0,0,0,0,0,0,0,0,0,0,0,0,0,0,0,0,0,0,0,0,0,0,0,0,0,0,0,0,0,0,0,0,0,0,0,0,0,0,0,0,0,0,0,0,0,
0,0,0,0,0,0,0,0,0,0,0,0,0,0,566,0,0,0,0,566,0,0,566,0,0,0,0,0,0,0,0,0,0,0,0,0,0,0,556,0,0,0,0,0,0,0,0,0,0,0,
0,0,0,0,0,0,0,0,0,0,556,0,0,0,582,0,0,0,0,582,0,0,582,0,0,0,0,0,0,0,0,0,0,609,610,0,0,0,572,0,0,0,0,0,0,0,0,0,0,0,
0,0,0,0,0,0,0,0,0,0,572,0,0,0,0,0,0,0,0,0,0,0,0,0,0,0,0,0,0,0,0,0,0,625,626,0,0,0,588,0,0,0,0,0,0,0,0,0,0,0,
0,0,0,0,0,0,0,0,0,0,588,0,0,0,0,0,0,857,858,0,0,0,0,0,0,0,0,0,0,0,0,0,0,0,0,0,0,0,0,0,0,0,0,0,0,0,0,0,0,0,
0,0,0,0,0,0,0,0,0,0,0,0,0,0,0,0,0,875,876,0,0,0,0,0,0,0,609,610,0,0,0,0,566,0,0,0,0,0,0,0,0,0,0,0,0,0,0,0,0,0,
0,0,0,566,0,0,0,0,0,0,0,0,0,0,0,0,0,891,892,0,0,0,0,0,0,0,625,626,0,0,0,0,582,0,0,0,0,0,566,566,0,0,0,0,0,0,0,0,0,0,
0,0,0,582,0,0,0,0,0,0,0,0,0,0,0,0,0,0,0,0,0,0,0,0,0,0,0,0,0,0,0,0,0,0,0,0,0,0,582,582,0,0,0,0,0,0,0,0,0,0,
0,0,0,0,0,0,556,0,0,0,0,0,0,0,0,0,0,0,0,0,0,0,0,566,0,0,0,0,0,0,0,0,0,0,0,0,0,889,890,0,0,0,0,0,0,0,0,0,0,0,
0,0,0,0,0,0,572,0,0,0,0,0,0,0,0,0,0,0,609,610,0,0,0,582,0,0,0,0,0,0,0,0,0,0,0,0,0,875,876,0,0,0,0,0,0,0,0,0,0,0,
0,0,0,0,0,0,588,0,0,0,0,0,0,0,0,0,0,0,625,626,0,0,0,609,610,0,0,0,0,0,0,0,0,0,0,0,0,891,892,0,609,610,0,0,0,609,610,0,0,0,
0,0,0,0,0,0,0,0,0,0,0,0,0,0,0,0,0,0,0,0,0,0,0,625,626,0,0,0,0,0,0,0,0,0,0,0,0,0,0,0,625,626,0,0,0,625,626,0,0,0,
0,0,0,0,0,0,0,0,0,0,0,0,0,0,0,0,0,0,0,0,0,0,0,0,0,0,0,0,0,0,0,0,0,0,0,0,0,0,0,0,0,0,0,0,0,0,0,0,0,0,
0,0,0,0,0,0,0,0,0,0,609,610,609,610,0,889,890,0,609,610,0,0,0,0,0,0,0,0,0,0,0,0,609,610,0,609,610,0,0,0,0,0,0,0,0,0,0,0,0,0,
0,0,0,0,0,0,0,0,0,0,625,626,625,626,0,875,876,0,625,626,0,294,294,294,294,294,294,294,294,294,294,0,625,626,0,625,626,0,0,0,0,0,0,0,0,0,609,610,0,0,
0,0,0,857,858,0,0,0,0,0,0,0,0,0,0,891,892,0,0,0,294,310,310,310,310,310,310,310,310,310,310,294,0,0,566,609,610,0,0,609,610,0,0,0,0,0,625,626,0,0,
0,0,0,875,876,0,0,0,0,0,0,0,0,0,0,566,0,0,0,0,310,0,0,0,0,0,0,0,0,0,0,310,0,0,582,625,626,0,0,625,626,0,0,0,0,0,0,0,0,0,
0,0,0,891,892,0,0,0,0,0,0,0,0,0,0,582,0,0,566,0,0,0,0,0,0,0,0,0,0,0,0,0,0,566,0,609,610,0,0,0,566,0,0,556,0,0,0,0,0,0,
0,0,0,0,0,0,566,0,0,0,0,0,609,610,0,609,610,0,582,0,0,0,0,0,0,0,0,0,0,0,0,0,0,582,0,625,626,0,0,0,582,0,0,572,0,0,0,0,0,0,
0,0,0,0,0,0,582,0,0,0,0,0,625,626,0,625,626,0,566,0,0,0,0,0,0,0,0,0,0,0,0,0,0,566,0,0,0,0,0,0,0,0,0,588,0,0,0,0,0,0,
0,0,0,0,0,0,0,0,0,0,609,610,0,0,0,0,0,0,582,0,0,0,0,0,0,0,0,0,0,0,0,0,0,582,0,0,0,0,0,0,0,0,0,0,0,0,609,610,0,0,
0,0,0,0,0,0,0,0,0,0,625,626,609,610,0,0,0,0,566,0,0,0,0,0,0,0,0,0,0,0,0,0,0,566,0,609,610,0,0,0,0,0,0,0,0,0,625,626,0,0,
0,0,0,0,0,0,0,0,0,0,0,0,625,626,0,0,609,610,582,0,0,0,0,0,0,0,0,0,0,0,0,0,0,582,0,625,626,0,0,0,0,0,0,0,0,0,0,0,0,0,
0,0,0,0,0,0,566,0,0,0,0,0,0,0,0,0,625,626,566,0,0,0,0,0,0,0,0,0,0,0,0,0,0,566,609,610,0,0,0,0,0,0,0,0,0,0,566,0,0,0,
0,0,0,0,0,0,582,0,0,0,0,0,0,0,0,0,0,0,582,566,0,0,0,0,0,0,0,0,0,0,0,0,566,582,625,626,0,0,0,0,0,0,0,0,0,0,582,0,0,0,
0,0,0,0,0,0,0,0,0,0,609,610,0,0,0,0,566,0,0,582,566,0,0,0,0,0,0,0,0,0,0,566,582,0,0,609,610,0,0,0,0,0,0,0,0,0,0,0,0,0,
0,0,0,0,0,0,0,0,0,0,625,626,0,0,0,0,582,0,0,0,582,566,566,566,566,0,0,566,566,566,566,582,0,0,0,625,626,0,0,0,0,0,0,0,0,0,0,0,0,0,
0,0,0,0,0,0,0,0,0,0,0,0,0,0,0,0,0,0,0,0,0,582,582,582,582,0,0,582,582,582,582,0,566,609,610,609,610,0,0,0,0,0,0,0,0,0,609,610,0,0,
0,0,0,0,0,0,0,0,0,0,0,0,0,0,0,609,610,609,610,0,0,0,0,0,0,0,0,0,0,0,0,0,582,625,626,625,626,0,0,0,0,0,0,0,0,0,625,626,0,0,
0,0,0,0,0,0,0,0,0,0,0,556,0,0,0,625,626,625,626,0,0,0,0,0,0,0,0,0,0,0,0,0,0,0,0,0,0,0,0,0,0,0,0,0,0,0,0,0,0,0,
0,0,0,0,0,0,566,0,0,0,0,572,0,0,0,0,0,0,0,0,0,0,566,0,0,0,0,0,0,0,0,0,0,0,0,0,0,0,0,0,0,0,0,0,0,0,0,0,0,0,
0,0,0,0,0,0,582,0,0,0,0,588,0,0,0,0,0,566,0,0,0,0,582,0,0,0,0,0,0,0,0,0,0,0,0,0,0,0,0,0,0,0,0,0,566,0,0,0,0,0,
0,0,0,0,0,0,0,0,0,0,609,610,0,0,0,0,0,582,0,0,0,0,0,0,0,0,0,609,610,0,0,0,0,0,0,0,0,0,0,0,0,873,874,0,582,0,0,0,0,0,
0,0,0,0,0,0,0,0,0,0,625,626,0,0,0,0,0,0,0,0,0,0,0,0,0,0,0,625,626,0,0,0,556,0,0,0,0,0,0,0,0,875,876,0,0,0,0,0,0,0,
0,0,0,0,0,0,0,0,0,0,0,0,0,0,0,0,0,0,0,0,0,0,0,0,0,0,0,0,0,0,0,0,572,0,0,0,0,0,0,0,0,891,892,0,0,0,0,0,0,0,
0,0,0,0,0,0,0,0,0,0,0,0,0,0,0,0,0,0,0,0,0,0,0,0,0,0,0,0,0,0,0,0,588,0,0,0,0,566,0,0,0,0,0,0,0,0,0,0,0,0,
0,0,0,0,0,0,0,0,0,0,0,0,0,0,0,0,0,0,0,0,0,0,0,0,609,610,0,0,0,0,0,0,0,0,0,0,0,582,0,0,0,0,0,0,0,0,0,0,0,0,
0,0,0,0,0,0,0,556,0,609,610,0,0,0,0,0,0,0,0,0,0,0,0,0,625,626,0,0,0,0,609,610,0,0,0,0,0,0,0,0,0,0,0,0,0,0,0,0,0,0,
0,0,0,0,0,0,0,572,0,625,626,0,0,0,0,0,873,874,0,0,0,0,0,0,0,0,0,0,0,0,625,626,0,0,0,0,0,0,0,0,0,0,0,0,0,0,0,0,0,0,
0,0,0,0,0,0,0,588,0,0,0,0,0,0,0,0,875,876,0,0,0,0,0,0,0,0,0,0,0,0,0,0,0,0,0,609,610,0,0,0,0,0,0,0,0,0,0,0,0,0,
0,0,0,0,0,0,0,0,0,0,0,0,0,0,0,0,891,892,0,0,0,0,0,0,0,0,0,0,0,0,0,0,0,0,0,625,626,0,0,0,609,610,0,0,0,0,0,0,0,0,
0,0,0,0,0,0,0,0,0,0,0,0,0,0,0,0,0,0,0,0,0,0,0,0,0,0,0,0,0,0,0,0,0,0,0,0,0,0,0,0,625,626,0,0,0,0,0,0,0,0,
0,0,0,0,0,0,0,0,0,0,0,0,0,0,0,0,0,0,0,0,0,0,0,0,0,0,0,0,0,0,0,0,0,0,0,0,0,0,0,0,0,0,0,0,0,0,0,0,0,0,
0,0,0,0,0,0,0,0,0,0,0,0,0,566,0,0,609,610,609,610,609,610,0,0,0,0,0,0,0,0,0,0,0,0,0,0,0,0,0,0,0,0,0,0,0,0,0,0,0,0,
0,0,0,0,0,0,0,0,0,0,0,0,0,582,0,0,625,626,625,626,625,626,0,0,0,0,0,0,0,0,0,0,0,0,0,0,0,0,0,0,0,0,0,0,0,0,0,0,0,0,
0,0,0,0,0,0,0,0,0,0,0,0,0,0,0,0,0,0,0,0,0,0,0,0,0,0,0,0,0,0,0,0,0,0,0,0,0,0,0,0,0,0,0,0,0,0,0,0,0,0,
0,0,0,0,0,0,0,0,0,0,0,0,0,0,0,0,0,0,0,0,0,0,0,0,0,0,0,0,0,0,0,0,0,0,0,0,0,0,0,0,0,0,0,0,0,0,0,0,0,0,
0,0,0,0,0,0,0,0,0,0,0,0,0,0,0,0,0,0,0,0,0,0,0,0,0,0,0,0,0,0,0,0,0,0,0,0,0,0,0,0,0,0,0,0,0,0,0,0,0,0
</data>
 </layer>
 <layer id="8" name="pilier" width="50" height="50">
  <data encoding="csv">
0,0,0,0,0,0,0,0,0,0,0,0,0,0,0,0,0,0,0,0,0,0,0,0,0,0,0,0,0,0,0,0,0,0,0,292,157,157,292,0,0,0,0,261,0,0,0,0,0,0,
0,0,0,0,0,0,0,0,0,0,0,0,0,0,0,0,0,0,0,0,0,0,0,0,0,0,0,0,0,0,0,0,0,0,0,308,0,0,308,0,0,0,0,277,0,0,0,0,0,0,
0,0,0,0,0,0,0,0,0,0,0,0,0,0,0,0,0,0,0,0,0,0,0,0,0,0,0,0,0,0,0,0,0,0,0,0,0,0,0,0,0,0,0,0,0,0,0,0,0,0,
0,0,261,0,0,261,0,0,0,0,0,0,0,0,0,0,0,0,0,0,0,0,0,0,0,0,0,0,0,0,0,0,0,0,0,0,0,0,0,0,0,0,0,261,0,0,0,0,0,0,
0,0,277,0,0,277,0,0,0,0,0,0,0,0,0,0,0,0,0,0,0,0,0,0,0,0,0,0,0,0,0,0,0,0,0,0,0,0,0,0,0,0,0,277,261,0,0,261,0,0,
0,0,0,0,0,0,0,0,0,0,0,0,0,0,0,0,0,0,0,0,0,0,0,0,0,0,0,0,0,0,0,0,0,0,0,0,0,0,0,0,0,0,0,0,277,0,0,277,0,0,
0,0,0,0,0,0,0,0,0,0,0,0,0,0,0,0,0,0,0,0,0,0,0,0,0,0,0,0,0,0,0,0,0,0,0,0,0,0,0,0,0,0,0,0,0,0,0,0,0,0,
0,0,0,0,0,0,0,0,0,0,0,0,0,0,0,0,0,0,0,0,0,0,0,0,0,0,0,0,0,0,0,0,0,0,0,0,0,0,0,0,0,0,0,0,0,0,0,0,0,0,
0,0,0,0,0,0,0,0,0,0,0,0,0,0,0,0,0,0,0,0,0,0,0,0,0,0,0,0,0,0,0,0,0,0,0,0,0,0,0,0,0,0,0,0,0,0,0,0,0,0,
0,0,0,0,0,0,0,0,0,0,0,0,0,0,0,0,0,0,0,0,0,0,0,0,0,0,0,0,0,0,0,0,0,0,0,0,0,0,0,0,0,0,0,0,0,0,0,0,0,0,
0,0,0,0,0,0,0,0,0,0,0,0,0,0,0,0,0,0,0,0,0,0,0,0,0,0,0,0,0,0,0,0,0,0,0,0,0,0,0,0,0,0,0,0,0,0,0,0,0,0,
0,0,0,0,0,0,0,0,0,0,0,0,0,0,0,0,0,0,0,0,0,0,0,0,0,0,0,0,0,0,0,0,0,0,0,0,0,0,0,0,0,0,0,0,0,0,0,0,0,0,
0,0,0,0,0,0,0,0,0,0,0,0,0,0,0,0,0,0,0,0,0,0,0,0,0,0,0,0,0,0,0,0,0,0,0,0,0,0,0,0,0,0,0,0,0,0,0,0,0,0,
0,0,0,0,0,0,0,0,0,0,0,0,0,0,0,0,0,0,0,0,0,0,0,0,0,0,0,0,0,0,0,0,0,0,0,0,0,0,0,0,0,0,0,0,0,0,0,0,0,0,
0,0,0,0,0,0,0,0,0,0,0,0,0,0,0,0,0,0,0,0,0,0,0,0,0,0,0,0,0,0,0,0,0,0,0,0,0,0,0,0,0,0,0,0,0,0,0,0,0,0,
0,0,0,0,0,0,0,0,0,0,0,0,0,0,0,0,0,0,0,0,0,0,0,0,0,0,0,0,0,0,0,0,0,0,0,0,0,0,0,0,0,0,0,0,0,0,0,0,0,0,
0,0,0,0,0,0,0,0,0,0,0,0,0,0,0,0,0,0,0,0,0,0,0,0,0,0,0,0,0,0,0,0,0,0,0,0,0,0,0,0,0,0,0,0,0,0,0,0,0,0,
0,0,0,0,0,0,0,0,0,0,0,0,0,0,0,0,0,0,0,0,0,0,0,0,0,0,0,0,0,0,0,0,0,0,0,0,0,0,0,0,0,0,0,0,0,0,0,0,0,0,
0,0,0,0,0,0,0,0,0,0,0,0,0,0,0,0,0,0,0,0,0,0,0,0,0,0,0,0,0,0,0,0,0,0,0,0,0,0,0,0,0,0,0,0,0,0,0,0,0,0,
0,0,0,0,0,0,0,0,0,0,0,0,0,0,0,0,0,0,0,0,0,0,0,0,0,0,0,0,0,0,0,0,0,0,0,0,0,0,0,0,0,0,0,0,0,0,0,0,0,0,
0,0,0,0,0,0,0,0,0,0,0,0,0,0,0,0,0,0,0,0,0,0,0,0,0,0,0,0,0,0,0,0,0,0,0,0,0,0,0,0,0,0,0,0,0,0,0,0,0,0,
0,0,0,0,0,0,0,0,0,0,0,0,0,0,0,0,0,0,0,0,0,0,0,0,0,0,0,0,0,0,0,0,0,0,0,0,0,0,0,0,0,0,0,0,0,0,0,0,0,0,
0,0,0,0,0,0,0,0,0,0,0,0,0,0,0,0,0,0,0,0,0,0,0,0,0,0,0,0,0,0,0,0,0,0,0,0,0,0,0,0,0,0,0,0,0,0,0,0,0,0,
0,0,0,0,0,0,0,0,0,0,0,0,0,0,0,0,0,0,0,0,0,0,0,0,0,0,0,0,0,0,0,0,0,0,0,0,0,0,0,0,0,0,0,0,0,0,0,0,0,0,
0,0,0,0,0,0,0,0,0,0,0,0,0,0,0,0,0,0,0,0,0,0,0,0,0,0,0,0,0,0,0,0,0,0,0,0,0,0,0,0,0,0,0,0,0,0,0,0,0,0,
0,0,0,0,0,0,0,0,0,0,0,0,0,0,0,0,0,0,0,0,0,0,0,0,0,0,0,0,0,0,0,0,0,0,0,0,0,0,0,0,0,0,0,0,0,0,0,0,0,0,
0,0,0,0,0,0,0,0,0,0,0,0,0,0,0,0,0,0,0,0,0,0,0,0,0,0,0,0,0,0,0,0,0,0,0,0,0,0,0,0,0,0,0,0,0,0,0,0,0,0,
0,0,0,0,0,0,0,0,0,0,0,0,0,0,0,0,0,0,0,0,0,0,0,0,0,0,0,0,0,0,0,0,0,0,0,0,0,0,0,0,0,0,0,0,0,0,0,0,0,0,
0,0,0,0,0,0,0,0,0,0,0,0,0,0,0,0,0,0,0,0,0,0,0,0,0,0,0,0,0,0,0,0,0,0,0,0,0,0,0,0,0,0,0,0,0,0,0,0,0,0,
0,0,0,0,0,0,0,0,0,0,0,0,0,0,0,0,0,0,0,0,0,0,0,0,292,0,0,292,0,0,0,0,0,0,0,0,0,0,0,0,0,0,0,0,0,0,0,0,0,0,
0,0,0,0,0,0,0,0,0,0,0,0,0,0,0,0,0,0,0,0,0,0,0,0,308,0,0,308,0,0,0,0,0,0,0,0,0,0,0,0,0,0,0,0,0,0,0,0,0,0,
0,0,0,0,0,0,0,0,0,0,0,0,0,0,0,0,0,0,0,0,0,0,0,0,0,0,0,0,0,0,0,0,0,0,0,0,0,0,0,0,0,0,0,0,0,0,0,0,0,0,
0,0,0,0,0,0,0,0,0,0,0,0,0,0,0,0,0,0,0,0,0,0,0,0,0,0,0,0,0,0,0,0,0,0,0,0,0,0,0,0,0,0,0,0,0,0,0,0,0,0,
0,0,0,0,0,0,0,0,0,0,0,0,0,0,0,0,0,0,0,0,0,0,0,0,0,0,0,0,0,0,0,0,0,0,0,0,0,0,0,0,0,0,0,0,0,0,0,0,0,0,
0,0,0,0,0,0,0,0,0,0,0,0,0,0,0,0,0,0,0,0,0,0,0,0,0,0,0,0,0,0,0,0,0,0,0,0,0,0,0,0,0,0,0,0,0,0,0,0,0,0,
0,0,0,0,0,0,0,0,0,0,0,0,0,0,0,0,0,0,0,0,0,0,0,0,0,0,0,0,0,0,0,0,0,0,0,0,0,0,0,0,0,0,0,0,0,0,0,0,0,0,
0,0,0,0,0,0,0,0,0,0,0,0,0,0,0,0,0,0,0,0,0,0,0,0,0,0,0,0,0,0,0,0,0,0,0,0,0,0,0,0,0,0,0,0,0,0,0,0,0,0,
0,0,0,0,0,0,0,0,0,0,0,0,0,0,0,0,0,0,0,0,0,0,0,0,0,0,0,0,0,0,0,0,0,0,0,0,0,0,0,261,0,0,0,261,0,0,0,0,0,0,
0,0,0,0,0,0,0,0,0,0,0,0,0,0,0,0,0,0,0,261,0,0,261,0,0,0,0,0,0,0,0,0,0,0,0,0,0,0,0,277,0,0,0,277,0,0,0,0,0,0,
0,0,0,0,0,0,0,0,0,0,0,0,0,0,0,0,0,0,0,277,0,0,277,0,0,0,0,0,0,0,0,0,0,0,0,0,0,0,0,0,0,0,0,0,0,0,0,0,0,0,
0,0,0,0,0,0,0,0,0,0,0,0,0,0,0,0,0,0,0,0,0,0,0,0,0,0,0,0,0,0,0,0,0,0,0,0,0,0,0,261,0,0,0,261,0,0,0,0,0,0,
0,0,0,0,0,0,0,0,0,0,0,0,0,0,0,0,0,0,0,261,0,0,261,0,0,0,0,0,0,0,0,0,0,0,0,0,0,0,0,277,0,0,0,277,0,0,0,0,0,0,
0,0,0,0,0,0,0,0,0,0,0,0,0,0,0,0,0,0,0,277,0,0,277,0,0,0,0,0,0,0,0,0,0,0,0,0,0,0,0,0,0,0,0,0,0,0,0,0,0,0,
0,0,0,0,0,0,0,0,0,0,0,0,0,0,0,0,0,0,0,0,0,0,0,0,0,0,0,0,0,0,0,0,0,0,0,261,0,0,0,0,0,0,0,0,261,0,0,0,0,0,
0,0,0,0,0,0,0,0,0,0,0,0,0,0,0,0,0,0,0,0,0,0,0,0,0,0,0,0,0,0,0,0,0,0,0,277,0,0,0,0,0,0,0,0,277,0,0,0,0,0,
0,0,0,0,0,0,0,0,0,0,0,0,0,0,0,0,0,0,0,0,0,0,0,0,0,0,0,0,0,0,0,0,0,0,0,0,0,0,0,0,0,0,0,0,0,0,0,0,0,0,
0,0,0,0,0,0,0,0,0,0,0,0,0,0,0,0,0,0,0,0,0,0,0,0,0,0,0,0,0,0,0,0,0,0,0,261,0,0,0,0,0,0,0,0,261,0,0,0,0,0,
0,0,0,0,0,0,0,0,0,0,0,0,0,0,0,0,0,0,0,0,0,0,0,0,0,0,0,0,0,0,0,0,0,0,0,277,0,0,0,0,0,0,0,0,277,0,0,0,0,0,
0,0,0,0,0,0,0,0,0,0,0,0,0,0,0,0,0,0,0,0,0,0,0,0,0,0,0,0,0,0,0,0,0,0,0,0,0,0,0,0,0,0,0,0,0,0,0,0,0,0,
0,0,0,0,0,0,0,0,0,0,0,0,0,0,0,0,0,0,0,0,0,0,0,0,0,0,0,0,0,0,0,0,0,0,0,0,0,0,0,0,0,0,0,0,0,0,0,0,0,0
</data>
 </layer>
 <objectgroup id="9" name="Objects">
  <object id="1" name="exit_foret" x="1154.67" y="5.33333" width="57.3333" height="21.3333"/>
  <object id="2" name="player" x="1185.33" y="40">
   <point/>
  </object>
  <object id="3" name="spawn_foret" x="1182.67" y="73.3333">
   <point/>
  </object>
  <object id="4" name="enter_bossforet" x="797.333" y="928" width="68" height="21.3333"/>
  <object id="6" name="enter_bossforet_exit" x="806.667" y="993.333" width="62.6667" height="25.3333"/>
 </objectgroup>
</map>
