<?xml version="1.0" encoding="UTF-8"?>
<map version="1.9" tiledversion="1.9.2" orientation="orthogonal" renderorder="right-down" width="50" height="50" tilewidth="16" tileheight="16" infinite="0" nextlayerid="15" nextobjectid="44">
 <tileset firstgid="1" source="Backgrounds/Inside_A5.tsx"/>
 <tileset firstgid="513" source="Backgrounds/Dungeon_B.tsx"/>
 <tileset firstgid="769" source="Backgrounds/sewer_1.tsx"/>
 <tileset firstgid="1121" source="Backgrounds/Dungeon_C.tsx"/>
 <layer id="1" name="fond" width="50" height="50">
  <data encoding="csv">
906,906,906,906,906,906,906,906,906,906,906,906,906,906,906,906,906,906,906,906,906,2684355441,906,906,906,906,906,906,1610613617,906,906,906,906,906,906,906,906,906,906,906,906,906,906,906,906,906,906,906,906,906,
906,906,906,906,906,906,906,894,906,906,906,906,906,906,906,906,906,906,906,906,906,2684355441,906,906,906,906,906,906,1610613617,906,906,906,906,910,906,906,906,906,906,906,906,906,906,906,906,906,906,906,906,906,
906,906,911,906,906,906,906,906,906,906,906,906,911,906,906,906,908,906,906,906,906,2684355441,906,906,906,906,906,906,1610613617,906,906,906,906,906,906,906,906,906,906,906,895,906,906,906,911,906,906,906,906,906,
906,906,906,906,910,906,906,906,906,906,906,906,906,906,906,906,906,906,906,906,906,2684355441,906,906,906,906,906,906,1610613617,906,906,908,906,906,906,906,906,906,906,906,906,906,906,906,906,906,906,906,910,906,
906,906,906,906,906,906,906,906,906,906,908,906,906,906,906,906,906,906,906,906,906,2684355441,906,906,906,906,906,906,1610613617,906,906,906,906,906,906,906,911,906,906,906,906,906,906,906,906,895,906,906,906,906,
906,906,906,906,906,906,906,906,906,906,906,906,906,906,906,906,906,910,906,906,906,2684355441,906,906,906,906,906,906,1610613617,906,906,906,906,906,906,906,906,906,906,906,906,906,910,906,906,906,906,906,906,906,
906,906,906,906,894,906,906,906,906,906,906,906,906,906,906,906,906,906,906,906,906,2684355441,906,906,906,906,906,906,1610613617,906,906,911,906,906,894,906,906,906,906,906,906,906,906,906,906,906,906,906,911,906,
906,906,906,906,906,906,906,911,906,906,894,906,906,906,906,906,906,906,895,906,906,2684355441,906,906,906,906,906,906,1610613617,906,906,906,906,906,906,906,906,906,906,895,906,906,906,906,906,906,906,906,906,906,
906,906,906,906,906,906,906,906,906,906,906,906,906,906,906,906,906,906,906,906,906,2684355441,906,906,906,906,906,906,1610613617,906,906,906,906,906,906,906,892,906,906,906,906,906,906,906,906,906,906,906,906,906,
906,911,906,906,906,906,906,895,906,906,906,906,906,906,894,906,906,906,906,906,906,2684355441,906,906,906,906,906,906,1610613617,906,906,906,906,906,906,906,906,906,906,906,906,906,906,906,906,906,906,906,893,906,
906,906,906,906,906,906,906,906,906,906,893,906,906,906,906,906,906,906,906,906,906,2684355441,906,906,906,906,906,906,1610613617,906,906,906,906,906,906,906,906,906,906,911,906,906,906,906,906,906,906,906,906,906,
906,906,906,906,906,906,906,906,906,906,906,906,906,906,906,906,895,906,906,911,906,2684355441,906,906,906,906,906,906,1610613617,906,906,906,910,906,906,893,906,906,906,906,906,906,906,906,906,893,906,906,906,906,
906,906,908,906,906,906,910,906,906,906,906,906,906,906,906,906,906,906,906,906,906,2684355441,906,906,906,906,906,906,1610613617,906,906,906,906,906,906,906,906,906,906,906,906,906,906,906,906,906,906,906,906,906,
906,906,906,906,906,906,906,906,906,906,906,906,906,906,895,906,906,906,906,906,906,2684355441,906,906,906,906,906,906,1610613617,906,906,906,906,906,906,906,906,906,906,892,906,906,906,906,906,910,906,906,906,906,
906,906,906,906,906,906,906,906,906,906,910,906,906,906,906,906,906,906,906,906,906,2684355441,906,906,906,906,906,906,1610613617,906,892,906,906,906,906,906,906,906,906,906,906,906,906,906,906,906,906,906,906,906,
906,906,906,906,906,908,906,906,906,906,906,906,906,906,906,906,906,892,906,906,906,2684355441,906,906,906,906,906,906,1610613617,906,906,906,906,911,906,906,906,906,906,906,906,906,906,906,906,906,906,906,906,906,
906,906,894,906,906,906,906,906,906,906,906,906,906,906,894,906,906,906,906,906,906,2684355441,906,906,906,906,906,906,1610613617,906,906,906,906,906,906,906,906,906,906,906,906,906,906,906,906,906,906,893,906,906,
906,906,906,906,906,906,906,906,911,906,906,906,906,906,906,906,906,906,906,906,906,2684355441,906,906,906,906,906,906,1610613617,906,906,906,906,906,906,906,906,906,906,906,906,906,906,906,911,906,906,906,906,906,
906,906,906,906,906,906,906,906,906,906,906,906,906,908,906,906,906,906,906,906,3221226353,2684355441,906,906,906,906,906,906,3221226353,3221226353,906,906,892,906,906,910,906,906,906,906,906,906,906,906,906,906,906,906,906,906,
906,906,906,906,906,906,906,906,906,906,906,906,906,906,906,906,910,906,906,3221226353,906,2684355441,906,906,906,906,906,906,1610613617,906,3221226353,906,906,906,906,906,906,906,892,906,906,906,906,906,906,906,906,906,906,906,
906,906,906,906,906,906,906,906,906,906,906,906,906,906,906,906,906,906,3221226353,906,906,2684355441,906,906,906,906,906,906,1610613617,906,906,3221226353,906,906,906,906,906,906,906,906,906,906,906,906,906,906,906,906,906,906,
3221226353,3221226353,3221226353,3221226353,3221226353,3221226353,3221226353,3221226353,3221226353,3221226353,3221226353,3221226353,3221226353,3221226353,3221226353,3221226353,3221226353,3221226353,3221226353,3221226353,3221226353,3221226353,3221226353,3221226353,3221226353,3221226353,3221226353,3221226353,1610613617,3221226353,3221226353,3221226353,3221226353,3221226353,3221226353,3221226353,3221226353,3221226353,3221226353,3221226353,3221226353,3221226353,3221226353,3221226353,3221226353,3221226353,3221226353,3221226353,3221226353,3221226353,
906,906,906,906,906,906,906,906,906,906,906,906,906,906,906,906,906,906,906,906,906,2684355441,906,906,906,906,906,906,1610613617,906,906,906,906,906,906,906,906,906,906,906,906,906,906,906,906,906,906,906,906,906,
906,906,906,906,906,906,906,906,906,906,906,906,906,906,906,906,906,906,906,906,906,2684355441,906,906,906,906,906,906,1610613617,906,906,906,906,906,906,906,906,906,906,906,906,906,906,906,906,906,906,906,906,906,
906,906,906,906,906,906,906,906,906,906,906,906,906,906,906,906,906,906,906,906,906,2684355441,906,906,906,906,906,906,1610613617,906,906,906,906,906,906,906,906,906,906,906,906,906,906,906,906,906,906,906,906,906,
906,906,906,906,906,906,906,906,906,906,906,906,906,906,906,906,906,906,906,906,906,2684355441,906,906,906,906,906,906,1610613617,906,906,906,906,906,906,906,906,906,906,906,906,906,906,906,906,906,906,906,906,906,
906,906,906,906,906,906,906,906,906,906,906,906,906,906,906,906,906,906,906,906,906,2684355441,906,906,906,906,906,906,1610613617,906,906,906,906,906,906,906,906,906,906,906,906,906,906,906,906,906,906,906,906,906,
906,906,906,906,906,906,906,906,906,906,906,906,906,906,906,906,906,906,906,906,906,2684355441,906,906,906,906,906,906,1610613617,906,906,906,906,906,906,906,906,906,906,906,906,0,0,0,0,0,0,0,0,0,
881,881,881,881,881,881,881,881,881,881,881,881,881,881,881,881,881,881,881,881,881,881,881,881,881,881,881,881,1610613617,881,881,881,881,881,881,881,881,881,881,881,881,881,881,881,881,881,881,881,881,881,
906,906,906,906,906,906,906,906,906,906,906,906,906,906,906,906,906,906,881,906,906,2684355441,906,906,906,906,906,906,1610613617,906,906,881,906,906,906,906,906,906,906,906,906,906,906,906,906,906,906,906,906,906,
906,906,906,906,906,906,906,906,906,906,906,908,906,906,906,906,906,906,906,881,906,2684355441,906,906,906,906,906,906,1610613617,906,881,906,906,893,906,906,906,906,906,906,906,906,906,906,906,906,910,906,906,906,
906,906,908,906,906,906,906,906,906,906,906,906,906,906,906,906,906,906,908,906,881,2684355441,906,906,906,906,906,906,1610613617,881,906,893,906,906,906,906,906,906,893,906,906,906,906,894,906,906,906,906,906,906,
906,906,906,906,906,911,906,906,906,906,906,906,906,906,910,906,906,906,906,906,906,2684355441,906,906,906,906,906,906,1610613617,906,906,906,906,906,906,906,906,906,906,906,906,906,906,906,906,906,906,906,906,906,
906,906,906,906,906,906,906,906,906,906,906,906,906,906,906,906,906,906,906,906,906,2684355441,906,906,906,906,906,906,1610613617,906,906,906,906,906,906,906,906,906,906,906,906,906,906,906,911,906,906,906,906,906,
906,906,906,906,910,906,906,906,906,894,906,906,906,906,906,906,906,906,906,895,906,2684355441,906,906,906,906,906,906,1610613617,906,906,908,906,906,906,906,910,906,906,906,906,894,906,906,906,906,906,910,906,906,
906,906,906,906,906,906,906,906,906,906,906,906,906,906,906,911,906,906,906,906,906,2684355441,906,906,906,906,906,906,1610613617,906,906,906,906,906,906,906,906,906,906,906,906,906,906,906,906,892,906,906,906,906,
906,906,895,906,906,906,906,906,906,906,906,906,906,906,906,906,906,906,906,906,906,2684355441,906,906,906,906,906,906,1610613617,906,906,906,906,911,906,906,906,906,906,906,906,906,906,906,906,906,906,906,906,906,
906,906,906,906,906,906,906,906,911,906,906,906,895,906,906,906,906,906,908,906,906,2684355441,906,906,906,906,906,906,1610613617,906,906,906,906,906,906,906,906,906,906,906,906,906,906,906,906,906,906,906,906,906,
906,906,906,906,906,906,906,906,906,906,906,906,906,906,894,906,906,906,906,906,906,2684355441,906,906,906,906,906,906,1610613617,906,906,906,906,906,906,906,895,906,906,906,906,906,906,906,906,906,906,906,906,906,
906,906,906,906,906,895,906,906,906,906,906,906,906,906,906,906,906,906,906,894,906,2684355441,906,906,906,906,906,906,1610613617,906,906,906,906,906,906,906,906,906,906,911,906,906,906,906,906,906,906,906,906,906,
906,906,911,906,906,906,906,906,906,894,906,906,906,906,906,906,906,906,906,906,906,2684355441,906,906,906,906,906,906,1610613617,906,906,906,911,906,906,906,906,906,906,906,906,906,906,906,906,910,906,906,906,906,
906,906,906,906,906,906,906,906,906,906,906,906,906,906,906,910,906,906,906,906,906,2684355441,906,906,906,906,906,906,1610613617,906,906,906,906,906,906,906,906,906,906,906,906,906,906,906,906,906,906,906,906,906,
906,906,908,906,906,906,910,906,906,906,906,906,906,906,906,906,906,906,906,910,906,2684355441,906,906,906,906,906,906,1610613617,906,906,906,906,906,906,906,906,910,906,906,906,893,906,906,906,906,906,906,906,906,
906,906,906,906,906,906,906,906,906,906,908,906,906,906,906,906,893,906,906,906,906,2684355441,906,906,906,906,906,906,1610613617,906,906,906,906,893,906,906,906,906,906,906,906,906,906,906,906,906,906,892,906,906,
906,906,906,906,906,906,906,906,906,906,906,906,906,906,906,906,906,906,906,906,906,2684355441,906,906,906,906,906,906,1610613617,906,906,906,906,906,906,906,906,906,906,906,906,906,906,906,906,906,906,906,906,906,
906,906,906,906,906,906,906,906,906,906,906,906,906,906,906,906,906,906,906,906,906,2684355441,906,906,906,906,906,906,1610613617,906,906,906,906,906,906,906,906,906,906,906,906,906,906,906,906,906,911,906,906,906,
906,906,910,906,906,906,906,906,906,906,906,906,906,906,906,906,906,906,906,906,906,2684355441,906,906,906,906,906,906,1610613617,906,906,906,906,906,906,906,911,906,906,906,906,906,906,906,906,906,906,906,906,906,
906,906,906,906,906,906,906,906,906,911,906,906,906,910,906,906,906,906,906,895,906,2684355441,906,906,906,906,906,906,1610613617,906,906,906,910,906,906,906,906,906,906,892,906,906,910,906,906,906,906,906,906,906,
906,906,906,906,895,906,906,906,906,906,906,906,906,906,906,906,911,906,906,906,906,2684355441,906,906,906,906,906,906,1610613617,906,906,906,906,906,906,906,906,906,906,906,906,906,906,906,906,906,906,906,906,906,
906,906,906,906,906,906,906,906,906,906,906,906,906,906,906,906,906,906,906,906,906,2684355441,906,906,906,906,906,906,1610613617,906,906,906,906,906,906,906,906,906,906,906,906,906,906,906,906,906,906,910,906,906
</data>
 </layer>
 <layer id="2" name="pont" width="50" height="50" locked="1">
  <data encoding="csv">
0,0,0,0,0,0,0,0,0,0,0,0,0,0,0,0,0,0,0,0,0,0,37,38,39,40,41,42,0,0,0,0,0,0,0,0,0,0,0,0,0,0,0,0,0,0,0,0,0,0,
0,0,0,0,0,0,0,0,0,0,0,0,0,0,0,0,0,0,0,0,0,0,53,54,55,56,57,58,0,0,0,0,0,0,0,0,0,0,0,0,0,0,0,0,0,0,0,0,0,0,
0,0,0,0,0,0,0,0,0,0,0,0,0,0,0,0,0,0,0,0,0,0,37,38,39,40,41,42,0,0,0,0,0,0,0,0,0,0,0,0,0,0,0,0,0,0,0,0,0,0,
0,0,0,0,0,0,0,0,0,0,0,0,0,0,0,0,0,0,0,0,0,0,53,54,55,56,57,58,0,0,0,0,0,0,0,0,0,0,0,0,0,0,0,0,0,0,0,0,0,0,
0,0,0,0,0,0,0,0,0,0,0,0,0,0,0,0,0,0,0,0,0,0,37,38,39,40,41,42,0,0,0,0,0,0,0,0,0,0,0,0,0,0,0,0,0,0,0,0,0,0,
0,0,0,0,0,0,0,0,0,0,0,0,0,0,0,0,0,0,0,0,0,0,53,54,55,56,57,58,0,0,0,0,0,0,0,0,0,0,0,0,0,0,0,0,0,0,0,0,0,0,
0,0,0,0,0,0,0,0,0,0,0,0,0,0,0,0,0,0,0,0,0,0,37,38,39,40,41,42,0,0,0,0,0,0,0,0,0,0,0,0,0,0,0,0,0,0,0,0,0,0,
0,0,0,0,0,0,0,0,0,0,0,0,0,0,0,0,0,0,0,0,0,0,53,54,55,56,57,58,0,0,0,0,0,0,0,0,0,0,0,0,0,0,0,0,0,0,0,0,0,0,
0,0,0,0,0,0,0,0,0,0,0,0,0,0,0,0,0,0,0,0,0,0,37,38,39,40,41,42,0,0,0,0,0,0,0,0,0,0,0,0,0,0,0,0,0,0,0,0,0,0,
0,0,0,0,0,0,0,0,0,0,0,0,0,0,0,0,0,0,0,0,0,0,53,54,55,56,57,58,0,0,0,0,0,0,0,0,0,0,0,0,0,0,0,0,0,0,0,0,0,0,
0,0,0,0,0,0,0,0,0,0,0,0,0,0,0,0,0,0,0,0,0,0,37,38,39,40,41,42,0,0,0,0,0,0,0,0,0,0,0,0,0,0,0,0,0,0,0,0,0,0,
0,0,0,0,0,0,0,0,0,0,0,0,0,0,0,0,0,0,0,0,0,0,53,54,55,56,57,58,0,0,0,0,0,0,0,0,0,0,0,0,0,0,0,0,0,0,0,0,0,0,
0,0,0,0,0,0,0,0,0,0,0,0,0,0,0,0,0,0,0,0,0,0,37,38,39,40,41,42,0,0,0,0,0,0,0,0,0,0,0,0,0,0,0,0,0,0,0,0,0,0,
0,0,0,0,0,0,0,0,0,0,0,0,0,0,0,0,0,0,0,0,0,0,53,54,55,56,57,58,0,0,0,0,0,0,0,0,0,0,0,0,0,0,0,0,0,0,0,0,0,0,
0,0,0,0,0,0,0,0,0,0,0,0,0,0,0,0,0,0,0,0,0,0,37,38,39,40,41,42,0,0,0,0,0,0,0,0,0,0,0,0,0,0,0,0,0,0,0,0,0,0,
0,0,0,0,0,0,0,0,0,0,0,0,0,0,0,0,0,0,0,0,0,0,53,54,55,56,57,58,0,0,0,0,0,0,0,0,0,0,0,0,0,0,0,0,0,0,0,0,0,0,
0,0,0,0,0,0,0,0,0,0,0,0,0,0,0,0,0,0,0,0,0,0,37,38,39,40,41,42,0,0,0,0,0,0,0,0,0,0,0,0,0,0,0,0,0,0,0,0,0,0,
0,0,0,0,0,0,0,0,0,0,0,0,0,0,0,0,0,0,0,0,0,0,53,54,55,56,57,58,0,0,0,0,0,0,0,0,0,0,0,0,0,0,0,0,0,0,0,0,0,0,
0,0,0,0,0,0,0,0,0,0,0,0,0,0,0,0,0,0,0,0,0,0,37,38,39,40,41,42,0,0,0,0,0,0,0,0,0,0,0,0,0,0,0,0,0,0,0,0,0,0,
0,0,0,0,0,0,0,0,0,0,0,0,0,0,0,0,0,0,0,0,2684354605,2684354621,2684354605,2684354621,2684354605,2684354621,2684354605,2684354621,2684354605,2684354621,0,0,0,0,0,0,0,0,0,0,0,0,0,0,0,0,0,0,0,0,
0,0,0,0,0,0,0,0,0,0,0,0,0,0,0,0,0,0,0,2684354622,2684354606,2684354622,2684354606,2684354622,2684354606,2684354622,2684354606,2684354622,2684354606,2684354622,2684354606,0,0,0,0,0,0,0,0,0,0,0,0,0,0,0,0,0,0,0,
0,0,0,0,0,0,0,0,0,0,0,0,0,0,0,0,0,0,0,2684354621,2684354605,2684354621,2684354605,2684354621,2684354605,2684354621,2684354605,2684354621,2684354605,2684354621,2684354605,0,0,0,0,0,0,0,0,0,0,0,0,0,0,0,0,0,0,0,
2684354613,2684354597,2684354613,2684354597,2684354613,2684354597,2684354613,2684354597,2684354613,2684354597,2684354613,2684354597,2684354613,2684354597,2684354613,2684354597,2684354613,2684354597,2684354613,2684354622,2684354606,2684354622,2684354606,2684354622,2684354606,2684354622,2684354606,2684354622,2684354606,2684354622,2684354606,2684354597,2684354613,2684354597,2684354613,2684354597,2684354613,2684354597,2684354613,2684354597,2684354613,2684354597,2684354613,2684354597,2684354613,2684354597,2684354613,2684354597,2684354613,2684354597,
2684354614,2684354598,2684354614,2684354598,2684354614,2684354598,2684354614,2684354598,2684354614,2684354598,2684354614,2684354598,2684354614,2684354598,2684354614,2684354598,2684354614,2684354598,2684354614,2684354621,2684354605,2684354621,2684354605,2684354621,2684354605,2684354621,2684354605,2684354621,2684354605,2684354621,2684354605,2684354598,2684354614,2684354598,2684354614,2684354598,2684354614,2684354598,2684354614,2684354598,2684354614,2684354598,2684354614,2684354598,2684354614,2684354598,2684354614,2684354598,2684354614,2684354598,
2684354615,2684354599,2684354615,2684354599,2684354615,2684354599,2684354615,2684354599,2684354615,2684354599,2684354615,2684354599,2684354615,2684354599,2684354615,2684354599,2684354615,2684354599,2684354615,2684354622,2684354606,2684354622,2684354606,2684354622,2684354606,2684354622,2684354606,2684354622,2684354606,2684354622,2684354606,2684354599,2684354615,2684354599,2684354615,2684354599,2684354615,2684354599,2684354615,2684354599,2684354615,2684354599,2684354615,2684354599,2684354615,2684354599,2684354615,2684354599,2684354615,2684354599,
2684354616,2684354600,2684354616,2684354600,2684354616,2684354600,2684354616,2684354600,2684354616,2684354600,2684354616,2684354600,2684354616,2684354600,2684354616,2684354600,2684354616,2684354600,2684354616,2684354621,2684354605,2684354621,2684354605,2684354621,2684354605,2684354621,2684354605,2684354621,2684354605,2684354621,2684354605,2684354600,2684354616,2684354600,2684354616,2684354600,2684354616,2684354600,2684354616,2684354600,2684354616,2684354600,2684354616,2684354600,2684354616,2684354600,2684354616,2684354600,2684354616,2684354600,
2684354617,2684354601,2684354617,2684354601,2684354617,2684354601,2684354617,2684354601,2684354617,2684354601,2684354617,2684354601,2684354617,2684354601,2684354617,2684354601,2684354617,2684354601,2684354617,2684354622,2684354606,2684354622,2684354606,2684354622,2684354606,2684354622,2684354606,2684354622,2684354606,2684354622,2684354606,2684354601,2684354617,2684354601,2684354617,2684354601,2684354617,2684354601,2684354617,2684354601,2684354617,2684354601,2684354617,2684354601,2684354617,2684354601,2684354617,2684354601,2684354617,2684354601,
2684354618,2684354602,2684354618,2684354602,2684354618,2684354602,2684354618,2684354602,2684354618,2684354602,2684354618,2684354602,2684354618,2684354602,2684354618,2684354602,2684354618,2684354602,2684354618,2684354621,2684354605,2684354621,2684354605,2684354621,2684354605,2684354621,2684354605,2684354621,2684354605,2684354621,2684354605,2684354602,2684354618,2684354602,2684354618,2684354602,2684354618,2684354602,2684354618,2684354602,2684354618,2684354602,2684354618,2684354602,2684354618,2684354602,2684354618,2684354602,2684354618,2684354602,
0,0,0,0,0,0,0,0,0,0,0,0,0,0,0,0,0,0,0,2684354622,2684354606,2684354622,2684354606,2684354622,2684354606,2684354622,2684354606,2684354622,2684354606,2684354622,2684354606,0,0,0,0,0,0,0,0,0,0,0,0,0,0,0,0,0,0,0,
0,0,0,0,0,0,0,0,0,0,0,0,0,0,0,0,0,0,0,2684354621,2684354605,2684354621,2684354605,2684354621,2684354605,2684354621,2684354605,2684354621,2684354605,2684354621,2684354605,0,0,0,0,0,0,0,0,0,0,0,0,0,0,0,0,0,0,0,
0,0,0,0,0,0,0,0,0,0,0,0,0,0,0,0,0,0,0,0,2684354606,2684354622,2684354606,2684354622,2684354606,2684354622,2684354606,2684354622,2684354606,2684354622,0,0,0,0,0,0,0,0,0,0,0,0,0,0,0,0,0,0,0,0,
0,0,0,0,0,0,0,0,0,0,0,0,0,0,0,0,0,0,0,0,0,0,53,54,55,56,57,58,0,0,0,0,0,0,0,0,0,0,0,0,0,0,0,0,0,0,0,0,0,0,
0,0,0,0,0,0,0,0,0,0,0,0,0,0,0,0,0,0,0,0,0,0,37,38,39,40,41,42,0,0,0,0,0,0,0,0,0,0,0,0,0,0,0,0,0,0,0,0,0,0,
0,0,0,0,0,0,0,0,0,0,0,0,0,0,0,0,0,0,0,0,0,0,53,54,55,56,57,58,0,0,0,0,0,0,0,0,0,0,0,0,0,0,0,0,0,0,0,0,0,0,
0,0,0,0,0,0,0,0,0,0,0,0,0,0,0,0,0,0,0,0,0,0,37,38,39,40,41,42,0,0,0,0,0,0,0,0,0,0,0,0,0,0,0,0,0,0,0,0,0,0,
0,0,0,0,0,0,0,0,0,0,0,0,0,0,0,0,0,0,0,0,0,0,53,54,55,56,57,58,0,0,0,0,0,0,0,0,0,0,0,0,0,0,0,0,0,0,0,0,0,0,
0,0,0,0,0,0,0,0,0,0,0,0,0,0,0,0,0,0,0,0,0,0,37,38,39,40,41,42,0,0,0,0,0,0,0,0,0,0,0,0,0,0,0,0,0,0,0,0,0,0,
0,0,0,0,0,0,0,0,0,0,0,0,0,0,0,0,0,0,0,0,0,0,53,54,55,56,57,58,0,0,0,0,0,0,0,0,0,0,0,0,0,0,0,0,0,0,0,0,0,0,
0,0,0,0,0,0,0,0,0,0,0,0,0,0,0,0,0,0,0,0,0,0,37,38,39,40,41,42,0,0,0,0,0,0,0,0,0,0,0,0,0,0,0,0,0,0,0,0,0,0,
0,0,0,0,0,0,0,0,0,0,0,0,0,0,0,0,0,0,0,0,0,0,53,54,55,56,57,58,0,0,0,0,0,0,0,0,0,0,0,0,0,0,0,0,0,0,0,0,0,0,
0,0,0,0,0,0,0,0,0,0,0,0,0,0,0,0,0,0,0,0,0,0,37,38,39,40,41,42,0,0,0,0,0,0,0,0,0,0,0,0,0,0,0,0,0,0,0,0,0,0,
0,0,0,0,0,0,0,0,0,0,0,0,0,0,0,0,0,0,0,0,0,0,53,54,55,56,57,58,0,0,0,0,0,0,0,0,0,0,0,0,0,0,0,0,0,0,0,0,0,0,
0,0,0,0,0,0,0,0,0,0,0,0,0,0,0,0,0,0,0,0,0,0,37,38,39,40,41,42,0,0,0,0,0,0,0,0,0,0,0,0,0,0,0,0,0,0,0,0,0,0,
0,0,0,0,0,0,0,0,0,0,0,0,0,0,0,0,0,0,0,0,0,0,53,54,55,56,57,58,0,0,0,0,0,0,0,0,0,0,0,0,0,0,0,0,0,0,0,0,0,0,
0,0,0,0,0,0,0,0,0,0,0,0,0,0,0,0,0,0,0,0,0,0,37,38,39,40,41,42,0,0,0,0,0,0,0,0,0,0,0,0,0,0,0,0,0,0,0,0,0,0,
0,0,0,0,0,0,0,0,0,0,0,0,0,0,0,0,0,0,0,0,0,0,53,54,55,56,57,58,0,0,0,0,0,0,0,0,0,0,0,0,0,0,0,0,0,0,0,0,0,0,
0,0,0,0,0,0,0,0,0,0,0,0,0,0,0,0,0,0,0,0,0,0,37,38,39,40,41,42,0,0,0,0,0,0,0,0,0,0,0,0,0,0,0,0,0,0,0,0,0,0,
0,0,0,0,0,0,0,0,0,0,0,0,0,0,0,0,0,0,0,0,0,0,53,54,55,56,57,58,0,0,0,0,0,0,0,0,0,0,0,0,0,0,0,0,0,0,0,0,0,0,
0,0,0,0,0,0,0,0,0,0,0,0,0,0,0,0,0,0,0,0,0,0,37,38,39,40,41,42,0,0,0,0,0,0,0,0,0,0,0,0,0,0,0,0,0,0,0,0,0,0,
0,0,0,0,0,0,0,0,0,0,0,0,0,0,0,0,0,0,0,0,0,0,53,54,55,56,57,58,0,0,0,0,0,0,0,0,0,0,0,0,0,0,0,0,0,0,0,0,0,0
</data>
 </layer>
 <objectgroup id="7" name="NPCPaths" locked="1">
  <object id="10" name="paul_path1" x="368" y="304" width="32" height="32"/>
  <object id="13" name="paul_path2" x="368" y="464" width="32" height="32"/>
 </objectgroup>
 <layer id="10" name="lumiere" width="50" height="50" opacity="0.49">
  <data encoding="csv">
0,0,0,0,0,0,0,0,0,0,0,0,0,0,0,0,0,0,0,0,0,837,0,0,0,0,0,0,837,0,0,0,0,0,0,0,0,0,0,0,0,0,0,0,0,0,0,0,0,0,
0,0,0,0,0,0,0,0,0,0,0,0,0,0,0,0,0,0,0,0,0,837,0,0,0,0,0,0,837,0,0,0,0,0,0,0,0,0,0,0,0,0,0,0,0,0,0,0,0,0,
0,0,0,0,0,0,0,0,0,0,0,0,0,0,0,0,0,0,0,0,0,837,0,0,0,0,0,0,837,0,0,0,0,0,0,0,0,0,0,0,0,0,0,0,0,0,0,0,0,0,
0,0,0,0,0,0,0,0,0,0,0,0,0,0,0,0,0,0,0,0,0,837,0,0,0,0,0,0,837,0,0,0,0,0,0,0,0,0,0,0,0,0,0,0,0,0,0,0,0,0,
0,0,0,0,0,0,0,0,0,0,0,0,0,0,0,0,0,0,0,0,0,837,0,0,0,0,0,0,837,0,0,0,0,0,0,0,0,0,0,0,0,0,0,0,0,0,0,0,0,0,
0,0,0,0,0,0,0,0,0,0,0,0,0,0,0,0,0,0,0,0,0,837,0,0,0,0,0,0,837,0,0,0,0,0,0,0,0,0,0,0,0,0,0,0,0,0,0,0,0,0,
0,0,0,0,0,0,0,0,0,0,0,0,0,0,0,0,0,0,0,0,0,837,0,0,0,0,0,0,837,0,0,0,0,0,0,0,0,0,0,0,0,0,0,0,0,0,0,0,0,0,
0,0,0,0,0,0,0,0,0,0,0,0,0,0,0,0,0,0,0,0,0,837,0,0,0,0,0,0,837,0,0,0,0,0,0,0,0,0,0,0,0,0,0,0,0,0,0,0,0,0,
0,0,0,0,0,0,0,0,0,0,0,0,0,0,0,0,0,0,0,0,0,837,0,0,0,0,0,0,837,0,0,0,0,0,0,0,0,0,0,0,0,0,0,0,0,0,0,0,0,0,
0,0,0,0,0,0,0,0,0,0,0,0,0,0,0,0,0,0,0,0,0,837,0,0,0,0,0,0,837,0,0,0,0,0,0,0,0,0,0,0,0,0,0,0,0,0,0,0,0,0,
0,0,0,0,0,0,0,0,0,0,0,0,0,0,0,0,0,0,0,0,0,837,0,0,0,0,0,0,837,0,0,0,0,0,0,0,0,0,0,0,0,0,0,0,0,0,0,0,0,0,
0,0,0,0,0,0,0,0,0,0,0,0,0,0,0,0,0,0,0,0,0,837,0,0,0,0,0,0,837,0,0,0,0,0,0,0,0,0,0,0,0,0,0,0,0,0,0,0,0,0,
0,0,0,0,0,0,0,0,0,0,0,0,0,0,0,0,0,0,0,0,0,837,0,0,0,0,0,0,837,0,0,0,0,0,0,0,0,0,0,0,0,0,0,0,0,0,0,0,0,0,
0,0,0,0,0,0,0,0,0,0,0,0,0,0,0,0,0,0,0,0,0,837,0,0,0,0,0,0,837,0,0,0,0,0,0,0,0,0,0,0,0,0,0,0,0,0,0,0,0,0,
0,0,0,0,0,0,0,0,0,0,0,0,0,0,0,0,0,0,0,0,0,837,0,0,0,0,0,0,837,0,0,0,0,0,0,0,0,0,0,0,0,0,0,0,0,0,0,0,0,0,
0,0,0,0,0,0,0,0,0,0,0,0,0,0,0,0,0,0,0,0,0,837,0,0,0,0,0,0,837,0,0,0,0,0,0,0,0,0,0,0,0,0,0,0,0,0,0,0,0,0,
0,0,0,0,0,0,0,0,0,0,0,0,0,0,0,0,0,0,0,0,0,837,0,0,0,0,0,0,837,0,0,0,0,0,0,0,0,0,0,0,0,0,0,0,0,0,0,0,0,0,
0,0,0,0,0,0,0,0,0,0,0,0,0,0,0,0,0,0,0,0,0,837,0,0,0,0,0,0,837,0,0,0,0,0,0,0,0,0,0,0,0,0,0,0,0,0,0,0,0,0,
0,0,0,0,0,0,0,0,0,0,0,0,0,0,0,0,0,0,0,0,837,837,0,0,0,0,0,0,837,837,0,0,0,0,0,0,0,0,0,0,0,0,0,0,0,0,0,0,0,0,
0,0,0,0,0,0,0,0,0,0,0,0,0,0,0,0,0,0,0,837,0,0,0,0,0,0,0,0,0,0,837,0,0,0,0,0,0,0,0,0,0,0,0,0,0,0,0,0,0,0,
0,0,0,0,0,0,0,0,0,0,0,0,0,0,0,0,0,0,837,0,0,0,0,0,0,0,0,0,0,0,0,837,0,0,0,0,0,0,0,0,0,0,0,0,0,0,0,0,0,0,
837,838,839,837,838,839,837,838,839,837,838,839,837,838,839,837,838,839,837,0,0,0,0,0,0,0,0,0,0,0,0,837,838,839,837,838,839,837,838,839,837,838,839,837,838,839,837,838,839,837,
0,0,0,0,0,0,0,0,0,0,0,0,0,0,0,0,0,0,0,0,0,0,0,0,0,0,0,0,0,0,0,0,0,0,0,0,0,0,0,0,0,0,0,0,0,0,0,0,0,0,
0,0,0,0,0,0,0,0,0,0,0,0,0,0,0,0,0,0,0,0,0,0,0,0,0,0,0,0,0,0,0,0,0,0,0,0,0,0,0,0,0,0,0,0,0,0,0,0,0,0,
0,0,0,0,0,0,0,0,0,0,0,0,0,0,0,0,0,0,0,0,0,0,0,0,0,0,0,0,0,0,0,0,0,0,0,0,0,0,0,0,0,0,0,0,0,0,0,0,0,0,
0,0,0,0,0,0,0,0,0,0,0,0,0,0,0,0,0,0,0,0,0,0,0,0,0,0,0,0,0,0,0,0,0,0,0,0,0,0,0,0,0,0,0,0,0,0,0,0,0,0,
0,0,0,0,0,0,0,0,0,0,0,0,0,0,0,0,0,0,0,0,0,0,0,0,0,0,0,0,0,0,0,0,0,0,0,0,0,0,0,0,0,0,0,0,0,0,0,0,0,0,
0,0,0,0,0,0,0,0,0,0,0,0,0,0,0,0,0,0,0,0,0,0,0,0,0,0,0,0,0,0,0,0,0,0,0,0,0,0,0,0,0,0,0,0,0,0,0,0,0,0,
837,838,839,837,838,839,837,838,839,837,838,839,837,838,839,837,838,839,837,0,0,0,0,0,0,0,0,0,0,0,0,837,838,839,837,838,839,837,838,839,837,838,839,837,838,839,837,838,839,837,
0,0,0,0,0,0,0,0,0,0,0,0,0,0,0,0,0,0,837,0,0,0,0,0,0,0,0,0,0,0,0,837,0,0,0,0,0,0,0,0,0,0,0,0,0,0,0,0,0,0,
0,0,0,0,0,0,0,0,0,0,0,0,0,0,0,0,0,0,0,837,0,0,0,0,0,0,0,0,0,0,837,0,0,0,0,0,0,0,0,0,0,0,0,0,0,0,0,0,0,0,
0,0,0,0,0,0,0,0,0,0,0,0,0,0,0,0,0,0,0,0,837,837,0,0,0,0,0,0,837,837,0,0,0,0,0,0,0,0,0,0,0,0,0,0,0,0,0,0,0,0,
0,0,0,0,0,0,0,0,0,0,0,0,0,0,0,0,0,0,0,0,0,837,0,0,0,0,0,0,837,0,0,0,0,0,0,0,0,0,0,0,0,0,0,0,0,0,0,0,0,0,
0,0,0,0,0,0,0,0,0,0,0,0,0,0,0,0,0,0,0,0,0,837,0,0,0,0,0,0,837,0,0,0,0,0,0,0,0,0,0,0,0,0,0,0,0,0,0,0,0,0,
0,0,0,0,0,0,0,0,0,0,0,0,0,0,0,0,0,0,0,0,0,837,0,0,0,0,0,0,837,0,0,0,0,0,0,0,0,0,0,0,0,0,0,0,0,0,0,0,0,0,
0,0,0,0,0,0,0,0,0,0,0,0,0,0,0,0,0,0,0,0,0,837,0,0,0,0,0,0,837,0,0,0,0,0,0,0,0,0,0,0,0,0,0,0,0,0,0,0,0,0,
0,0,0,0,0,0,0,0,0,0,0,0,0,0,0,0,0,0,0,0,0,837,0,0,0,0,0,0,837,0,0,0,0,0,0,0,0,0,0,0,0,0,0,0,0,0,0,0,0,0,
0,0,0,0,0,0,0,0,0,0,0,0,0,0,0,0,0,0,0,0,0,837,0,0,0,0,0,0,837,0,0,0,0,0,0,0,0,0,0,0,0,0,0,0,0,0,0,0,0,0,
0,0,0,0,0,0,0,0,0,0,0,0,0,0,0,0,0,0,0,0,0,837,0,0,0,0,0,0,837,0,0,0,0,0,0,0,0,0,0,0,0,0,0,0,0,0,0,0,0,0,
0,0,0,0,0,0,0,0,0,0,0,0,0,0,0,0,0,0,0,0,0,837,0,0,0,0,0,0,837,0,0,0,0,0,0,0,0,0,0,0,0,0,0,0,0,0,0,0,0,0,
0,0,0,0,0,0,0,0,0,0,0,0,0,0,0,0,0,0,0,0,0,837,0,0,0,0,0,0,837,0,0,0,0,0,0,0,0,0,0,0,0,0,0,0,0,0,0,0,0,0,
0,0,0,0,0,0,0,0,0,0,0,0,0,0,0,0,0,0,0,0,0,837,0,0,0,0,0,0,837,0,0,0,0,0,0,0,0,0,0,0,0,0,0,0,0,0,0,0,0,0,
0,0,0,0,0,0,0,0,0,0,0,0,0,0,0,0,0,0,0,0,0,837,0,0,0,0,0,0,837,0,0,0,0,0,0,0,0,0,0,0,0,0,0,0,0,0,0,0,0,0,
0,0,0,0,0,0,0,0,0,0,0,0,0,0,0,0,0,0,0,0,0,837,0,0,0,0,0,0,837,0,0,0,0,0,0,0,0,0,0,0,0,0,0,0,0,0,0,0,0,0,
0,0,0,0,0,0,0,0,0,0,0,0,0,0,0,0,0,0,0,0,0,837,0,0,0,0,0,0,837,0,0,0,0,0,0,0,0,0,0,0,0,0,0,0,0,0,0,0,0,0,
0,0,0,0,0,0,0,0,0,0,0,0,0,0,0,0,0,0,0,0,0,837,0,0,0,0,0,0,837,0,0,0,0,0,0,0,0,0,0,0,0,0,0,0,0,0,0,0,0,0,
0,0,0,0,0,0,0,0,0,0,0,0,0,0,0,0,0,0,0,0,0,837,0,0,0,0,0,0,837,0,0,0,0,0,0,0,0,0,0,0,0,0,0,0,0,0,0,0,0,0,
0,0,0,0,0,0,0,0,0,0,0,0,0,0,0,0,0,0,0,0,0,837,0,0,0,0,0,0,837,0,0,0,0,0,0,0,0,0,0,0,0,0,0,0,0,0,0,0,0,0,
0,0,0,0,0,0,0,0,0,0,0,0,0,0,0,0,0,0,0,0,0,837,0,0,0,0,0,0,837,0,0,0,0,0,0,0,0,0,0,0,0,0,0,0,0,0,0,0,0,0,
0,0,0,0,0,0,0,0,0,0,0,0,0,0,0,0,0,0,0,0,0,837,0,0,0,0,0,0,837,0,0,0,0,0,0,0,0,0,0,0,0,0,0,0,0,0,0,0,0,0
</data>
 </layer>
 <layer id="11" name="pillier" width="50" height="50">
  <data encoding="csv">
0,0,0,0,0,0,0,0,0,0,0,0,0,0,0,0,0,0,0,0,0,0,0,0,0,0,0,0,0,0,0,0,0,0,0,0,0,0,0,0,0,0,0,0,0,0,0,0,0,0,
0,0,0,0,0,0,0,0,0,0,0,0,0,0,0,0,0,0,0,0,0,0,3221226014,3221226014,3221226014,3221226014,3221226014,0,0,0,0,0,0,0,0,0,0,0,0,0,0,0,0,0,0,0,0,0,0,0,
0,0,0,0,0,0,0,0,0,0,0,0,0,0,0,0,0,0,0,0,0,0,0,0,0,0,0,0,0,0,0,0,0,0,0,0,0,0,0,0,0,0,0,0,0,0,0,0,0,0,
0,0,0,0,0,0,0,0,0,0,0,0,0,0,0,0,0,0,0,0,0,0,0,0,0,0,0,0,0,0,0,0,0,0,0,0,0,0,0,0,0,0,0,0,0,0,0,0,0,0,
0,0,0,0,0,0,0,0,0,0,0,0,0,0,0,0,0,0,0,0,0,0,0,0,0,0,0,0,0,0,0,0,0,0,0,0,0,0,0,0,0,0,0,0,0,0,0,0,0,0,
0,0,0,0,0,0,0,0,0,0,0,0,0,0,0,0,0,0,0,0,0,0,0,0,0,0,0,0,0,0,0,0,0,0,0,0,0,0,0,0,0,0,0,0,0,0,0,0,0,0,
0,0,0,0,0,0,0,0,0,0,0,0,0,0,0,0,0,0,0,0,0,0,0,0,0,0,0,0,0,0,0,0,0,0,0,0,0,0,0,0,0,0,0,0,0,0,0,0,0,0,
0,0,0,0,0,0,0,0,0,0,0,0,0,0,0,0,0,0,0,0,0,0,0,0,0,0,0,0,0,0,0,0,0,0,0,0,0,0,0,0,0,0,0,0,0,0,0,0,0,0,
0,0,0,0,0,0,0,0,0,0,0,0,0,0,0,0,0,0,0,0,0,0,0,0,0,0,0,0,0,0,0,0,0,0,0,0,0,0,0,0,0,0,0,0,0,0,0,0,0,0,
0,0,0,0,0,0,0,0,0,0,0,0,0,0,0,0,0,0,0,0,0,0,0,0,0,0,0,0,0,0,0,0,0,0,0,0,0,0,0,0,0,0,0,0,0,0,0,0,0,0,
0,0,0,0,0,0,0,0,0,0,0,0,0,0,0,0,0,0,0,0,0,0,0,0,0,0,0,0,0,0,0,0,0,0,0,0,0,0,0,0,0,0,0,0,0,0,0,0,0,0,
0,0,0,0,0,0,0,0,0,0,0,0,0,0,0,0,0,0,0,0,0,0,0,0,0,0,0,0,0,0,0,0,0,0,0,0,0,0,0,0,0,0,0,0,0,0,0,0,0,0,
0,0,0,0,0,0,0,0,0,0,0,0,0,0,0,0,0,0,0,0,0,0,0,0,0,0,0,0,0,0,0,0,0,0,0,0,0,0,0,0,0,0,0,0,0,0,0,0,0,0,
0,0,0,0,0,0,0,0,0,0,0,0,0,0,0,0,0,0,0,0,0,0,0,0,0,0,0,0,0,0,0,0,0,0,0,0,0,0,0,0,0,0,0,0,0,0,0,0,0,0,
0,0,0,0,0,0,0,0,0,0,0,0,0,0,0,0,0,0,0,0,0,0,0,0,0,0,0,0,0,0,0,0,0,0,0,0,0,0,0,0,0,0,0,0,0,0,0,0,0,0,
0,0,0,0,0,0,0,0,0,0,0,0,0,0,0,0,0,0,0,0,0,0,0,0,0,0,0,0,0,0,0,0,0,0,0,0,0,0,0,0,0,0,0,0,0,0,0,0,0,0,
0,0,0,0,0,0,0,0,0,0,0,0,0,0,0,0,0,0,0,0,0,0,0,0,0,0,0,0,0,0,0,0,0,0,0,0,0,0,0,0,0,0,0,0,0,0,0,0,0,0,
0,0,0,0,0,0,0,0,0,0,0,0,0,0,0,0,0,0,0,0,0,634,0,0,0,0,0,0,635,0,0,0,0,0,0,0,0,0,0,0,0,0,0,0,0,0,0,0,0,0,
0,0,0,0,0,0,0,0,0,0,0,0,0,0,0,0,0,0,0,0,0,650,0,0,0,0,0,0,651,0,0,0,0,0,0,0,0,0,0,0,0,0,0,0,0,0,0,0,0,0,
0,0,0,0,0,0,0,0,0,0,0,0,0,0,0,0,0,0,0,0,0,0,0,0,0,0,0,0,0,0,0,0,0,0,0,0,0,0,0,0,0,0,0,0,0,0,0,0,0,0,
0,0,0,0,0,0,0,0,0,0,0,0,0,0,0,0,0,0,0,677,0,0,0,0,0,0,0,0,0,0,0,0,0,0,0,0,0,0,0,0,0,0,0,0,0,0,0,0,0,0,
0,0,0,0,0,0,0,0,0,0,0,0,0,0,0,0,0,0,0,693,0,0,0,0,0,0,0,0,0,0,647,0,0,0,0,0,0,0,0,0,0,0,0,0,0,0,0,0,0,0,
2684355102,0,0,0,0,0,0,0,0,0,0,0,0,0,0,0,723,0,0,0,0,0,1761,1762,1763,1764,1765,1766,0,0,663,0,0,0,0,0,0,0,0,0,0,0,0,631,0,0,0,0,1610613278,0,
2684355102,0,0,0,0,0,0,0,0,0,0,612,0,0,0,0,0,0,0,0,0,0,1793,1794,1795,1796,1797,1798,0,0,0,0,0,0,0,615,0,0,0,0,0,0,0,0,0,0,0,0,1610613278,0,
2684355102,0,0,0,0,0,0,0,0,0,0,0,0,0,0,0,0,0,0,0,0,0,1825,1826,1827,1828,1829,1830,0,0,0,0,0,0,0,0,0,0,0,0,0,0,0,0,0,0,0,0,1610613278,0,
2684355102,0,0,0,0,0,0,0,0,0,0,0,0,0,0,0,0,0,0,0,0,0,1857,1858,1859,1860,1861,1862,0,0,0,0,0,0,0,0,0,0,0,0,0,0,0,0,0,0,0,0,1610613278,0,
2684355102,0,0,0,0,0,0,0,0,0,0,0,0,0,0,0,0,0,0,0,0,0,1889,1890,1891,1892,1893,1894,0,0,0,0,0,0,0,0,0,0,0,0,0,0,0,0,0,0,0,0,1610613278,0,
2684355102,0,0,0,0,0,0,0,0,0,0,0,723,0,0,0,0,0,0,677,0,0,1921,1922,1923,1924,1925,1926,0,0,647,0,0,0,631,0,0,0,0,0,0,0,0,0,0,0,0,0,1610613278,0,
0,0,0,0,0,0,0,0,0,0,0,0,0,0,0,0,0,0,0,693,0,0,0,0,0,0,0,0,0,0,663,0,0,0,0,0,0,0,0,0,0,0,0,0,0,0,0,0,1610613278,0,
0,0,0,0,0,0,0,0,0,0,0,0,0,0,0,0,0,0,0,0,676,0,0,0,0,0,0,0,676,0,0,0,0,0,0,0,0,0,0,0,0,0,0,0,0,0,0,0,0,0,
0,0,0,0,0,0,0,0,0,0,0,0,0,0,0,0,0,0,0,0,692,0,0,0,0,0,0,0,692,0,0,0,0,0,0,0,0,0,0,0,0,0,0,0,0,0,0,0,0,0,
0,0,0,0,0,0,0,0,0,0,0,0,0,0,0,0,0,0,0,0,0,0,0,0,0,0,0,0,0,0,0,0,0,0,0,0,0,0,0,0,0,0,0,0,0,0,0,0,0,0,
0,0,0,0,0,0,0,0,0,0,0,0,0,0,0,0,0,0,0,0,0,0,0,0,0,0,0,571,0,0,0,0,0,0,0,0,0,0,0,0,0,0,0,0,0,0,0,0,0,0,
0,0,0,0,0,0,0,0,0,0,0,0,0,0,0,0,0,0,0,0,0,0,0,571,0,0,0,587,0,0,0,0,0,0,0,0,0,0,0,0,0,0,0,0,0,0,0,0,0,0,
0,0,0,0,0,0,0,0,0,0,0,0,0,0,0,0,0,0,0,0,0,0,0,587,0,0,0,0,0,0,0,0,0,0,0,0,0,0,0,0,0,0,0,0,0,0,0,0,0,0,
0,0,0,0,0,0,0,0,0,0,0,0,0,0,0,0,0,0,0,0,0,0,0,0,0,0,613,0,0,0,0,0,0,0,0,0,0,0,0,0,0,0,0,0,0,0,0,0,0,0,
0,0,0,0,0,0,0,0,0,0,0,0,0,0,0,0,0,0,0,0,0,0,0,0,0,0,0,0,0,0,0,0,0,0,0,0,0,0,0,0,0,0,0,0,0,0,0,0,0,0,
0,0,0,0,0,0,0,0,0,0,0,0,0,0,0,0,0,0,0,0,0,0,0,0,0,0,0,0,0,0,0,0,0,0,0,0,0,0,0,0,0,0,0,0,0,0,0,0,0,0,
0,0,0,0,0,0,0,0,0,0,0,0,0,0,0,0,0,0,0,0,0,0,0,0,0,0,0,0,0,0,0,0,0,0,0,0,0,0,0,0,0,0,0,0,0,0,0,0,0,0,
0,0,0,0,0,0,0,0,0,0,0,0,0,0,0,0,0,0,0,0,0,0,0,0,0,0,0,571,0,0,0,0,0,0,0,0,0,0,0,0,0,0,0,0,0,0,0,0,0,0,
0,0,0,0,0,0,0,0,0,0,0,0,0,0,0,0,0,0,0,0,0,0,0,0,0,0,0,587,0,0,0,0,0,0,0,0,0,0,0,0,0,0,0,0,0,0,0,0,0,0,
0,0,0,0,0,0,0,0,0,0,0,0,0,0,0,0,0,0,0,0,0,0,0,0,0,0,0,0,0,0,0,0,0,0,0,0,0,0,0,0,0,0,0,0,0,0,0,0,0,0,
0,0,0,0,0,0,0,0,0,0,0,0,0,0,0,0,0,0,0,0,0,0,0,0,0,0,0,0,0,0,0,0,0,0,0,0,0,0,0,0,0,0,0,0,0,0,0,0,0,0,
0,0,0,0,0,0,0,0,0,0,0,0,0,0,0,0,0,0,0,0,0,0,0,613,0,0,0,0,0,0,0,0,0,0,0,0,0,0,0,0,0,0,0,0,0,0,0,0,0,0,
0,0,0,0,0,0,0,0,0,0,0,0,0,0,0,0,0,0,0,0,0,0,0,0,0,0,0,0,0,0,0,0,0,0,0,0,0,0,0,0,0,0,0,0,0,0,0,0,0,0,
0,0,0,0,0,0,0,0,0,0,0,0,0,0,0,0,0,0,0,0,0,0,0,0,0,0,0,0,0,0,0,0,0,0,0,0,0,0,0,0,0,0,0,0,0,0,0,0,0,0,
0,0,0,0,0,0,0,0,0,0,0,0,0,0,0,0,0,0,0,0,0,0,0,0,0,0,0,0,0,0,0,0,0,0,0,0,0,0,0,0,0,0,0,0,0,0,0,0,0,0,
0,0,0,0,0,0,0,0,0,0,0,0,0,0,0,0,0,0,0,0,0,0,0,0,0,0,0,0,0,0,0,0,0,0,0,0,0,0,0,0,0,0,0,0,0,0,0,0,0,0,
0,0,0,0,0,0,0,0,0,0,0,0,0,0,0,0,0,0,0,0,0,0,0,0,0,0,0,0,0,0,0,0,0,0,0,0,0,0,0,0,0,0,0,0,0,0,0,0,0,0,
0,0,0,0,0,0,0,0,0,0,0,0,0,0,0,0,0,0,0,0,0,0,542,542,542,542,542,542,0,0,0,0,0,0,0,0,0,0,0,0,0,0,0,0,0,0,0,0,0,0
</data>
 </layer>
 <layer id="12" name="détail" width="50" height="50">
  <data encoding="csv">
0,0,0,0,0,0,0,0,0,0,0,0,0,0,0,0,0,0,0,0,0,0,0,0,0,0,0,0,0,0,0,0,0,0,0,0,0,0,0,0,0,0,0,0,0,0,0,0,0,0,
0,0,0,0,0,0,0,0,0,0,0,0,0,0,0,0,0,0,0,0,0,0,0,0,0,0,0,0,0,0,0,0,0,0,0,0,0,0,0,0,0,0,0,0,0,0,0,0,0,0,
0,0,0,0,0,0,0,0,0,0,0,0,0,0,0,0,0,0,0,0,0,0,0,0,0,0,0,0,0,0,0,0,0,0,0,0,0,0,0,0,0,0,0,0,0,0,0,0,0,0,
0,0,0,0,0,0,0,0,0,0,0,0,0,0,0,0,0,0,0,0,0,0,0,0,0,0,0,0,0,0,0,0,0,0,0,0,0,0,0,0,0,0,0,0,0,0,0,0,0,0,
0,0,0,0,0,0,0,0,0,0,0,0,0,0,0,0,0,0,0,0,0,0,0,0,0,0,0,0,0,0,0,0,0,0,0,0,0,0,0,0,0,0,0,0,0,0,0,0,0,0,
0,0,0,0,0,0,0,0,0,0,0,0,0,0,0,0,0,0,0,0,0,0,0,0,0,0,0,0,0,0,0,0,0,0,0,0,0,0,0,0,0,0,0,0,0,0,0,0,0,0,
0,0,0,0,0,0,0,0,0,0,0,0,0,0,0,0,0,0,0,0,0,0,0,0,0,0,0,0,0,0,0,0,0,0,0,0,0,0,0,0,0,0,0,0,0,0,0,0,0,0,
0,0,0,0,0,0,0,0,0,0,0,0,0,0,0,0,0,0,0,0,0,0,0,0,0,0,0,0,0,0,0,0,0,0,0,0,0,0,0,0,0,0,0,0,0,0,0,0,0,0,
0,0,0,0,0,0,0,0,0,0,0,0,0,0,0,0,0,0,0,0,0,0,0,0,0,0,0,0,0,0,0,0,0,0,0,0,0,0,0,0,0,0,0,0,0,0,0,0,0,0,
0,0,0,0,0,0,0,0,0,0,0,0,0,0,0,0,0,0,0,0,0,0,0,0,0,0,0,0,0,0,0,0,0,0,0,0,0,0,0,0,0,0,0,0,0,0,0,0,0,0,
0,0,0,0,0,0,0,0,0,0,0,0,0,0,0,0,0,0,0,0,0,0,0,0,0,0,0,0,0,0,0,0,0,0,0,0,0,0,0,0,0,0,0,0,0,0,0,0,0,0,
0,0,0,0,0,0,0,0,0,0,0,0,0,0,0,0,0,0,0,0,0,0,0,0,0,0,0,0,0,0,0,0,0,0,0,0,0,0,0,0,0,0,0,0,0,0,0,0,0,0,
0,0,0,0,0,0,0,0,0,0,0,0,0,0,0,0,0,0,0,0,0,0,0,0,0,0,0,0,0,0,0,0,0,0,0,0,0,0,0,0,0,0,0,0,0,0,0,0,0,0,
0,0,0,0,0,0,0,0,0,0,0,0,0,0,0,0,0,0,0,0,0,0,0,0,0,0,0,0,0,0,0,0,0,0,0,0,0,0,0,0,0,0,0,0,0,0,0,0,0,0,
0,0,0,0,0,0,0,0,0,0,0,0,0,0,0,0,0,0,0,0,0,0,0,0,0,0,0,0,0,0,0,0,0,0,0,0,0,0,0,0,0,0,0,0,0,0,0,0,0,0,
0,0,0,0,0,0,0,0,0,0,0,0,0,0,0,0,0,0,0,0,0,0,0,0,0,0,0,0,0,0,0,0,0,0,0,0,0,0,0,0,0,0,0,0,0,0,0,0,0,0,
0,0,0,0,0,0,0,0,0,0,0,0,0,0,0,0,0,0,0,0,0,0,0,0,0,0,0,0,0,0,0,0,0,0,0,0,0,0,0,0,0,0,0,0,0,0,0,0,0,0,
0,0,0,0,0,0,0,0,0,0,0,0,0,0,0,0,0,0,0,0,0,0,0,0,0,0,0,0,0,0,0,0,0,0,0,0,0,0,0,0,0,0,0,0,0,0,0,0,0,0,
0,0,0,0,0,0,0,0,0,0,0,0,0,0,0,0,0,0,0,0,0,0,0,0,0,0,0,0,0,0,0,0,0,0,0,0,0,0,0,0,0,0,0,0,0,0,0,0,0,0,
0,0,0,0,0,0,0,0,0,0,0,0,0,0,0,0,0,0,0,0,0,0,0,0,0,0,0,0,0,0,0,0,0,0,0,0,0,0,0,0,0,0,0,0,0,0,0,0,0,0,
0,0,0,0,0,0,0,0,0,0,0,0,0,0,0,0,0,0,0,0,0,0,0,0,0,0,0,0,0,0,0,0,0,0,0,0,0,0,0,0,0,0,0,0,0,0,0,0,0,0,
0,0,0,0,0,0,0,0,0,0,0,0,0,0,0,0,0,0,0,0,0,0,0,0,0,0,0,0,0,0,0,0,0,0,0,0,0,0,0,0,0,0,0,0,0,0,0,0,0,0,
0,0,0,0,0,0,0,0,0,0,0,0,0,0,0,0,0,0,0,0,0,0,0,0,0,0,0,0,0,0,0,0,0,0,0,0,0,0,0,0,0,0,0,0,0,0,0,0,0,0,
0,0,0,0,0,0,0,0,0,0,0,0,0,0,0,0,0,0,0,0,0,0,0,0,0,0,0,0,0,0,0,0,0,0,0,0,0,0,0,0,0,0,0,0,0,0,0,0,0,0,
0,0,0,0,0,0,0,0,0,0,0,0,0,0,0,0,0,0,0,0,0,0,0,0,0,0,0,0,0,0,0,0,0,0,0,0,0,0,0,0,0,0,0,0,0,0,0,0,0,0,
0,0,0,0,0,0,0,0,0,0,0,0,0,0,0,0,0,0,0,0,0,0,0,0,0,0,0,0,0,0,0,0,0,0,0,0,0,0,0,0,0,0,0,0,0,0,0,0,0,0,
0,0,0,0,0,0,0,0,0,0,0,0,0,0,0,0,0,0,0,0,0,0,0,0,0,0,0,0,0,0,0,0,0,0,0,0,0,0,0,0,0,0,0,0,0,0,0,0,0,0,
0,0,0,0,0,0,0,0,0,0,0,0,0,0,0,0,0,0,0,0,0,0,0,0,0,0,0,0,0,0,0,0,0,0,0,0,0,0,0,0,0,0,0,0,0,0,0,0,0,0,
0,0,0,0,0,0,0,0,0,0,0,0,0,0,0,0,0,0,0,0,0,0,0,0,0,0,0,0,0,0,0,0,0,0,0,0,0,0,0,0,0,0,0,0,0,0,0,0,0,0,
0,0,0,0,0,0,0,0,0,0,0,0,0,0,0,0,0,0,0,0,569,0,0,0,0,0,0,0,569,0,0,0,0,0,0,0,0,0,0,0,0,0,0,0,0,0,0,0,0,0,
0,0,0,0,0,0,0,0,0,0,0,0,0,0,0,0,0,0,0,0,585,0,0,0,0,0,0,0,585,0,0,0,0,0,0,0,0,0,0,0,0,0,0,0,0,0,0,0,0,0,
0,0,0,0,0,0,0,0,0,0,0,0,0,0,0,0,0,0,0,0,0,0,0,0,0,0,0,0,0,0,0,0,0,0,0,0,0,0,0,0,0,0,0,0,0,0,0,0,0,0,
0,0,0,0,0,0,0,0,0,0,0,0,0,0,0,0,0,0,0,0,0,0,0,0,0,0,0,0,0,0,0,0,0,0,0,0,0,0,0,0,0,0,0,0,0,0,0,0,0,0,
0,0,0,0,0,0,0,0,0,0,0,0,0,0,0,0,0,0,0,0,0,0,0,0,0,0,0,0,0,0,0,0,0,0,0,0,0,0,0,0,0,0,0,0,0,0,0,0,0,0,
0,0,0,0,0,0,0,0,0,0,0,0,0,0,0,0,0,0,0,0,0,0,0,0,0,0,0,0,0,0,0,0,0,0,0,0,0,0,0,0,0,0,0,0,0,0,0,0,0,0,
0,0,0,0,0,0,0,0,0,0,0,0,0,0,0,0,0,0,0,0,0,0,0,0,0,0,0,0,0,0,0,0,0,0,0,0,0,0,0,0,0,0,0,0,0,0,0,0,0,0,
0,0,0,0,0,0,0,0,0,0,0,0,0,0,0,0,0,0,0,0,0,0,0,0,0,0,0,0,0,0,0,0,0,0,0,0,0,0,0,0,0,0,0,0,0,0,0,0,0,0,
0,0,0,0,0,0,0,0,0,0,0,0,0,0,0,0,0,0,0,0,0,0,0,0,0,0,0,0,0,0,0,0,0,0,0,0,0,0,0,0,0,0,0,0,0,0,0,0,0,0,
0,0,0,0,0,0,0,0,0,0,0,0,0,0,0,0,0,0,0,0,0,0,0,0,0,0,0,0,0,0,0,0,0,0,0,0,0,0,0,0,0,0,0,0,0,0,0,0,0,0,
0,0,0,0,0,0,0,0,0,0,0,0,0,0,0,0,0,0,0,0,0,0,0,0,0,0,0,0,0,0,0,0,0,0,0,0,0,0,0,0,0,0,0,0,0,0,0,0,0,0,
0,0,0,0,0,0,0,0,0,0,0,0,0,0,0,0,0,0,0,0,0,0,0,0,0,0,0,0,0,0,0,0,0,0,0,0,0,0,0,0,0,0,0,0,0,0,0,0,0,0,
0,0,0,0,0,0,0,0,0,0,0,0,0,0,0,0,0,0,0,0,0,0,0,0,0,0,0,0,0,0,0,0,0,0,0,0,0,0,0,0,0,0,0,0,0,0,0,0,0,0,
0,0,0,0,0,0,0,0,0,0,0,0,0,0,0,0,0,0,0,0,0,0,0,0,0,0,0,0,0,0,0,0,0,0,0,0,0,0,0,0,0,0,0,0,0,0,0,0,0,0,
0,0,0,0,0,0,0,0,0,0,0,0,0,0,0,0,0,0,0,0,0,0,0,0,0,0,0,0,0,0,0,0,0,0,0,0,0,0,0,0,0,0,0,0,0,0,0,0,0,0,
0,0,0,0,0,0,0,0,0,0,0,0,0,0,0,0,0,0,0,0,0,0,0,0,0,0,0,0,0,0,0,0,0,0,0,0,0,0,0,0,0,0,0,0,0,0,0,0,0,0,
0,0,0,0,0,0,0,0,0,0,0,0,0,0,0,0,0,0,0,0,0,0,0,0,0,0,0,0,0,0,0,0,0,0,0,0,0,0,0,0,0,0,0,0,0,0,0,0,0,0,
0,0,0,0,0,0,0,0,0,0,0,0,0,0,0,0,0,0,0,0,0,0,0,0,0,0,0,0,0,0,0,0,0,0,0,0,0,0,0,0,0,0,0,0,0,0,0,0,0,0,
0,0,0,0,0,0,0,0,0,0,0,0,0,0,0,0,0,0,0,0,0,0,0,0,0,0,0,0,0,0,0,0,0,0,0,0,0,0,0,0,0,0,0,0,0,0,0,0,0,0,
0,0,0,0,0,0,0,0,0,0,0,0,0,0,0,0,0,0,0,0,0,0,0,0,0,0,0,0,0,0,0,0,0,0,0,0,0,0,0,0,0,0,0,0,0,0,0,0,0,0,
0,0,0,0,0,0,0,0,0,0,0,0,0,0,0,0,0,0,0,0,0,0,0,0,0,0,0,0,0,0,0,0,0,0,0,0,0,0,0,0,0,0,0,0,0,0,0,0,0,0
</data>
 </layer>
 <objectgroup id="13" name="objects">
  <object id="14" name="player" x="397" y="387.5">
   <point/>
  </object>
  <object id="22" name="enter_rue" x="365" y="2" width="69.5" height="21.5"/>
  <object id="31" name="enter_foret" x="350.667" y="767.667" width="98.6667" height="32.6667"/>
  <object id="33" name="enter_fire" x="767.978" y="364.323" width="29.2118" height="73.5331"/>
  <object id="34" name="enter_rue_exit" x="366.136" y="33.1753" width="70.5112" height="25.1826"/>
  <object id="37" name="enter_fire_exit" x="722.181" y="363.334" width="29.2727" height="74.7273"/>
  <object id="39" name="enter_foret_exit" x="356.5" y="726.5" width="87.5" height="28"/>
  <object id="41" name="enter_ice" x="10.5" y="364" width="19" height="65.5"/>
  <object id="42" name="enter_ice_exit" x="42" y="365.5" width="22.5" height="63"/>
  <object id="43" class="collision" x="436" y="-1" width="41" height="301.5"/>
 </objectgroup>
</map>
